( Made using CamBam - http://www.cambam.info )
( BlumeDesLebens 11/27/2015 8:31:59 PM )
( T0 : 1.0 )
G21 G90 G64 G40
G0 Z3.0
( T0 : 1.0 )
T0 M6
( Profil1 )
G17
M3 S5000
G0 X49.72 Y167.99
G0 Z1.0
G1 F300.0 Z-4.0
G2 F500.0 X39.28 Y149.91 I-27.72 J3.95
G2 X49.72 Y167.99 I27.72 J-3.95
G0 Z3.0
G0 X54.28
G0 Z1.0
G1 F300.0 Z-4.0
G2 F500.0 X64.72 Y149.91 I-17.28 J-22.03
G2 X54.28 Y167.99 I17.28 J22.03
G0 Z3.0
G0 X56.56 Y171.94
G0 Z1.0
G1 F300.0 Z-4.0
G2 F500.0 X77.44 I10.44 J-25.98
G2 X56.56 I-10.44 J25.98
G0 Z3.0
G0 X61.64 Y166.37
G0 Z1.0
G1 F300.0 Z-4.0
G3 F500.0 X72.36 I5.36 J31.55
G3 X67.0 Y157.1 I24.64 J-20.41
G3 X61.64 Y166.37 I-30.0 J-11.14
G0 Z3.0
G0 X52.0 Y160.81
G0 Z1.0
G1 F300.0 Z-4.0
G3 F500.0 X57.36 Y151.53 I30.0 J11.14
G3 X46.64 I-5.36 J-31.55
G3 X52.0 Y160.81 I-24.64 J20.41
G0 Z3.0
G0 Y147.98
G0 Z1.0
G1 F300.0 Z-4.0
G2 F500.0 X62.44 Y145.96 I0.0 J-28.0
G2 X41.56 I-10.44 J25.98
G2 X52.0 Y147.98 I10.44 J-25.98
G0 Z3.0
G0 Y139.94
G0 Z1.0
G1 F300.0 Z-4.0
G3 F500.0 X57.36 Y140.39 I0.0 J32.0
G3 X52.0 Y131.12 I24.64 J-20.41
G3 X46.64 Y140.39 I-30.0 J-11.14
G3 X52.0 Y139.94 I5.36 J31.55
G0 Z3.0
G0 X45.31 Y135.49
G0 Z1.0
G1 F300.0 Z-4.0
G2 F500.0 X49.72 Y123.93 I-23.31 J-15.51
G2 X39.28 Y142.01 I17.28 J22.03
G2 X45.31 Y135.49 I-17.28 J-22.03
G0 Z3.0
G0 X38.18 Y132.05
G0 Z1.0
G1 F300.0 Z-4.0
G3 F500.0 X42.36 Y125.55 I28.82 J13.91
G3 X31.64 I-5.36 J-31.55
G3 X37.0 Y134.83 I-24.64 J20.41
G3 X38.18 Y132.05 I30.0 J11.14
G0 Z3.0
G0 X32.57 Y134.55
G0 Z1.0
G1 F300.0 Z-4.0
G2 F500.0 X24.28 Y123.93 I-25.57 J11.41
G2 X34.72 Y142.01 I27.72 J-3.95
G2 X32.57 Y134.55 I-27.72 J3.95
G0 Z3.0
G0 X26.4 Y139.18
G0 Z1.0
G1 F300.0 Z-4.0
G3 F500.0 X20.02 Y121.12 I25.6 J-19.2
G3 X11.0 Y112.65 I16.98 J-27.12
G2 X37.84 Y159.15 I86.0 J-18.65
G3 X35.02 Y147.1 I29.16 J-13.19
G3 X26.4 Y139.18 I16.98 J-27.12
G0 Z3.0
G0 X30.6 Y121.26
G0 Z1.0
G1 F300.0 Z-4.0
G2 F500.0 X47.44 Y119.98 I6.4 J-27.26
G2 X26.56 I-10.44 J25.98
G2 X30.6 Y121.26 I10.44 J-25.98
G0 Z3.0
G0 X31.64 Y114.41
G0 Z1.0
G1 F300.0 Z-4.0
G3 F500.0 X42.36 I5.36 J31.55
G3 X37.0 Y105.14 I24.64 J-20.41
G3 X31.64 Y114.41 I-30.0 J-11.14
G0 Z3.0
G0 X28.56 Y111.86
G0 Z1.0
G1 F300.0 Z-4.0
G2 F500.0 X34.72 Y97.95 I-21.56 J-17.86
G2 X24.28 Y116.03 I17.28 J22.03
G2 X28.56 Y111.86 I-17.28 J-22.03
G0 Z3.0
G0 X22.0 Y108.85
G0 Z1.0
G1 F300.0 Z-4.0
G3 F500.0 X27.36 Y99.57 I30.0 J11.14
G3 X16.64 I-5.36 J-31.55
G3 X22.0 Y108.85 I-24.64 J20.41
G0 Z3.0
G0 X18.25 Y110.24
G0 Z1.0
G1 F300.0 Z-4.0
G2 F500.0 X9.28 Y97.95 I-26.25 J9.74
G2 X19.72 Y116.03 I27.72 J-3.95
G2 X18.25 Y110.24 I-27.72 J3.95
G0 Z3.0
G0 X19.52 Y95.91
G0 Z1.0
G1 F300.0 Z-4.0
G2 F500.0 X32.44 Y94.0 I2.48 J-27.89
G2 X11.56 I-10.44 J25.98
G2 X19.52 Y95.91 I10.44 J-25.98
G0 Z3.0
G0 X18.72 Y88.15
G0 Z1.0
G1 F300.0 Z-4.0
G3 F500.0 X27.36 Y88.43 I3.28 J31.83
G3 X22.0 Y79.15 I24.64 J-20.41
G3 X16.64 Y88.43 I-30.0 J-11.14
G3 X18.72 Y88.15 I5.36 J31.55
G0 Z3.0
G0 X14.37 Y84.87
G0 Z1.0
G1 F300.0 Z-4.0
G2 F500.0 X19.72 Y71.97 I-22.37 J-16.85
G2 X9.28 Y90.05 I17.28 J22.03
G2 X14.37 Y84.87 I-17.28 J-22.03
G0 Z3.0
G0 X11.0 Y75.35
G0 Z1.0
G1 F300.0 Z-4.0
G3 F500.0 X20.02 Y66.88 I26.0 J18.65
G3 X35.02 Y40.9 I31.98 J1.14
G3 X37.84 Y28.85 I31.98 J1.14
G2 X11.0 Y75.35 I59.16 J65.15
G0 Z3.0
G0 X24.44 Y72.94
G0 Z1.0
G1 F300.0 Z-4.0
G2 F500.0 X34.72 Y90.05 I27.56 J-4.93
G2 X24.28 Y71.97 I-27.72 J3.95
G2 X24.44 Y72.94 I27.72 J-3.95
G0 Z3.0
G0 X26.56 Y68.02
G0 Z1.0
G1 F300.0 Z-4.0
G2 F500.0 X47.44 I10.44 J-25.98
G2 X26.56 I-10.44 J25.98
G0 Z3.0
G0 X24.28 Y64.07
G0 Z1.0
G1 F300.0 Z-4.0
G2 F500.0 X34.72 Y45.99 I-17.28 J-22.03
G2 X24.28 Y64.07 I17.28 J22.03
G0 Z3.0
G0 X31.64 Y62.45
G0 Z1.0
G1 F300.0 Z-4.0
G3 F500.0 X42.36 I5.36 J31.55
G3 X37.0 Y53.17 I24.64 J-20.41
G3 X31.64 Y62.45 I-30.0 J-11.14
G0 Z3.0
G0 Y73.59
G0 Z1.0
G1 F300.0 Z-4.0
G3 F500.0 X37.0 Y82.86 I-24.64 J20.41
G3 X42.36 Y73.59 I30.0 J11.14
G3 X31.64 I-5.36 J-31.55
G0 Z3.0
G0 X42.75 Y80.0
G0 Z1.0
G1 F300.0 Z-4.0
G2 F500.0 X39.28 Y90.05 I24.25 J14.0
G2 X49.72 Y71.97 I-17.28 J-22.03
G2 X42.75 Y80.0 I17.28 J22.03
G0 Z3.0
G0 X49.71 Y84.02
G0 Z1.0
G1 F300.0 Z-4.0
G3 F500.0 X46.64 Y88.43 I-27.71 J-16.0
G3 X57.36 I5.36 J31.55
G3 X52.0 Y79.15 I24.64 J-20.41
G3 X49.71 Y84.02 I-30.0 J-11.14
G0 Z3.0
G0 X56.91 Y80.45
G0 Z1.0
G1 F300.0 Z-4.0
G2 F500.0 X64.72 Y90.05 I25.09 J-12.43
G2 X54.28 Y71.97 I-27.72 J3.95
G2 X56.91 Y80.45 I27.72 J-3.95
G0 Z3.0
G0 X63.46 Y76.0
G0 Z1.0
G1 F300.0 Z-4.0
G3 F500.0 X67.0 Y82.86 I-26.46 J18.0
G3 X72.36 Y73.59 I30.0 J11.14
G3 X61.64 I-5.36 J-31.55
G3 X63.46 Y76.0 I-24.64 J20.41
G0 Z3.0
G0 X64.09 Y69.89
G0 Z1.0
G1 F300.0 Z-4.0
G2 F500.0 X77.44 Y68.02 I2.91 J-27.85
G2 X56.56 I-10.44 J25.98
G2 X64.09 Y69.89 I10.44 J-25.98
G0 Z3.0
G0 X63.17 Y62.23
G0 Z1.0
G1 F300.0 Z-4.0
G3 F500.0 X72.36 Y62.45 I3.83 J31.77
G3 X67.0 Y53.17 I24.64 J-20.41
G3 X61.64 Y62.45 I-30.0 J-11.14
G3 X63.17 Y62.23 I5.36 J31.55
G0 Z3.0
G0 X59.17 Y59.14
G0 Z1.0
G1 F300.0 Z-4.0
G2 F500.0 X64.72 Y45.99 I-22.17 J-17.1
G2 X54.28 Y64.07 I17.28 J22.03
G2 X59.17 Y59.14 I-17.28 J-22.03
G0 Z3.0
G0 X52.18 Y56.42
G0 Z1.0
G1 F300.0 Z-4.0
G3 F500.0 X57.36 Y47.61 I29.82 J11.6
G3 X46.64 I-5.36 J-31.55
G3 X52.0 Y56.88 I-24.64 J20.41
G3 X52.18 Y56.42 I30.0 J11.14
G0 Z3.0
G0 X48.14 Y57.97
G0 Z1.0
G1 F300.0 Z-4.0
G2 F500.0 X39.28 Y45.99 I-26.14 J10.04
G2 X49.72 Y64.07 I27.72 J-3.95
G2 X48.14 Y57.97 I-27.72 J3.95
G0 Z3.0
G0 X49.43 Y43.94
G0 Z1.0
G1 F300.0 Z-4.0
G2 F500.0 X62.44 Y42.04 I2.57 J-27.88
G2 X41.56 I-10.44 J25.98
G2 X49.43 Y43.94 I10.44 J-25.98
G0 Z3.0
G0 X48.6 Y36.2
G0 Z1.0
G1 F300.0 Z-4.0
G3 F500.0 X57.36 Y36.47 I3.4 J31.82
G3 X52.0 Y27.19 I24.64 J-20.41
G3 X46.64 Y36.47 I-30.0 J-11.14
G3 X48.6 Y36.2 I5.36 J31.55
G0 Z3.0
G0 X44.32 Y32.96
G0 Z1.0
G1 F300.0 Z-4.0
G2 F500.0 X49.72 Y20.01 I-22.32 J-16.9
G2 X39.28 Y38.09 I17.28 J22.03
G2 X44.32 Y32.96 I-17.28 J-22.03
G0 Z3.0
G0 X56.45 Y27.52
G0 Z1.0
G1 F300.0 Z-4.0
G2 F500.0 X64.72 Y38.09 I25.55 J-11.46
G2 X54.28 Y20.01 I-27.72 J3.95
G2 X56.45 Y27.52 I27.72 J-3.95
G0 Z3.0
G0 X62.64 Y22.9
G0 Z1.0
G1 F300.0 Z-4.0
G3 F500.0 X67.0 Y30.9 I-25.64 J19.14
G3 X72.36 Y21.63 I30.0 J11.14
G3 X61.64 I-5.36 J-31.55
G3 X62.64 Y22.9 I-24.64 J20.41
G0 Z3.0
G0 X63.32 Y17.83
G0 Z1.0
G1 F300.0 Z-4.0
G2 F500.0 X77.44 Y16.06 I3.68 J-27.76
G2 X56.56 I-10.44 J25.98
G2 X63.32 Y17.83 I10.44 J-25.98
G0 Z3.0
G0 X70.16 Y10.19
G0 Z1.0
G1 F300.0 Z-4.0
G3 F500.0 X82.0 Y13.77 I-3.16 J31.84
G3 X112.0 I15.0 J28.27
G3 X123.84 Y10.19 I15.0 J28.27
G2 X70.16 I-26.84 J83.81
G0 Z3.0
G0 X78.95 Y20.63
G0 Z1.0
G1 F300.0 Z-4.0
G2 F500.0 X69.28 Y38.09 I18.05 J21.41
G2 X79.72 Y20.01 I-17.28 J-22.03
G2 X78.95 Y20.63 I17.28 J22.03
G0 Z3.0
G0 X84.28 Y20.01
G0 Z1.0
G1 F300.0 Z-4.0
G2 F500.0 X94.72 Y38.09 I27.72 J-3.95
G2 X84.28 Y20.01 I-27.72 J3.95
G0 Z3.0
G0 X86.56 Y16.06
G0 Z1.0
G1 F300.0 Z-4.0
G2 F500.0 X107.44 I10.44 J-25.98
G2 X86.56 I-10.44 J25.98
G0 Z3.0
G0 X91.64 Y21.63
G0 Z1.0
G1 F300.0 Z-4.0
G3 F500.0 X97.0 Y30.9 I-24.64 J20.41
G3 X102.36 Y21.63 I30.0 J11.14
G3 X91.64 I-5.36 J-31.55
G0 Z3.0
G0 X82.0 Y27.19
G0 Z1.0
G1 F300.0 Z-4.0
G3 F500.0 X76.64 Y36.47 I-30.0 J-11.14
G3 X87.36 I5.36 J31.55
G3 X82.0 Y27.19 I24.64 J-20.41
G0 Z3.0
G0 Y40.02
G0 Z1.0
G1 F300.0 Z-4.0
G2 F500.0 X71.56 Y42.04 I0.0 J28.0
G2 X92.44 I10.44 J-25.98
G2 X82.0 Y40.02 I-10.44 J25.98
G0 Z3.0
G0 Y48.06
G0 Z1.0
G1 F300.0 Z-4.0
G3 F500.0 X76.64 Y47.61 I0.0 J-32.0
G3 X82.0 Y56.88 I-24.64 J20.41
G3 X87.36 Y47.61 I30.0 J11.14
G3 X82.0 Y48.06 I-5.36 J-31.55
G0 Z3.0
G0 X88.69 Y52.51
G0 Z1.0
G1 F300.0 Z-4.0
G2 F500.0 X84.28 Y64.07 I23.31 J15.51
G2 X94.72 Y45.99 I-17.28 J-22.03
G2 X88.69 Y52.51 I17.28 J22.03
G0 Z3.0
G0 X95.82 Y55.95
G0 Z1.0
G1 F300.0 Z-4.0
G3 F500.0 X91.64 Y62.45 I-28.82 J-13.91
G3 X102.36 I5.36 J31.55
G3 X97.0 Y53.17 I24.64 J-20.41
G3 X95.82 Y55.95 I-30.0 J-11.14
G0 Z3.0
G0 X101.43 Y53.45
G0 Z1.0
G1 F300.0 Z-4.0
G2 F500.0 X109.72 Y64.07 I25.57 J-11.41
G2 X99.28 Y45.99 I-27.72 J3.95
G2 X101.43 Y53.45 I27.72 J-3.95
G0 Z3.0
G0 X107.6 Y48.82
G0 Z1.0
G1 F300.0 Z-4.0
G3 F500.0 X112.0 Y56.88 I-25.6 J19.2
G3 X117.36 Y47.61 I30.0 J11.14
G3 X106.64 I-5.36 J-31.55
G3 X107.6 Y48.82 I-24.64 J20.41
G0 Z3.0
G0 X108.27 Y43.81
G0 Z1.0
G1 F300.0 Z-4.0
G2 F500.0 X122.44 Y42.04 I3.73 J-27.75
G2 X101.56 I-10.44 J25.98
G2 X108.27 Y43.81 I10.44 J-25.98
G0 Z3.0
G0 X107.13 Y36.39
G0 Z1.0
G1 F300.0 Z-4.0
G3 F500.0 X117.36 Y36.47 I4.87 J31.63
G3 X112.0 Y27.19 I24.64 J-20.41
G3 X106.64 Y36.47 I-30.0 J-11.14
G3 X107.13 Y36.39 I5.36 J31.55
G0 Z3.0
G0 X103.77 Y33.67
G0 Z1.0
G1 F300.0 Z-4.0
G2 F500.0 X109.72 Y20.01 I-21.77 J-17.61
G2 X99.28 Y38.09 I17.28 J22.03
G2 X103.77 Y33.67 I-17.28 J-22.03
G0 Z3.0
G0 X116.57 Y27.77
G0 Z1.0
G1 F300.0 Z-4.0
G2 F500.0 X124.72 Y38.09 I25.43 J-11.72
G2 X114.28 Y20.01 I-27.72 J3.95
G2 X116.57 Y27.77 I27.72 J-3.95
G0 Z3.0
G0 X122.86 Y23.19
G0 Z1.0
G1 F300.0 Z-4.0
G3 F500.0 X127.0 Y30.9 I-25.86 J18.85
G3 X132.36 Y21.63 I30.0 J11.14
G3 X121.64 I-5.36 J-31.55
G3 X122.86 Y23.19 I-24.64 J20.41
G0 Z3.0
G0 X123.52 Y17.86
G0 Z1.0
G1 F300.0 Z-4.0
G2 F500.0 X137.44 Y16.06 I3.48 J-27.78
G2 X116.56 I-10.44 J25.98
G2 X123.52 Y17.86 I10.44 J-25.98
G0 Z3.0
G0 X134.3 Y25.64
G0 Z1.0
G1 F300.0 Z-4.0
G2 F500.0 X129.28 Y38.09 I22.7 J16.39
G2 X139.72 Y20.01 I-17.28 J-22.03
G2 X134.3 Y25.64 I17.28 J22.03
G0 Z3.0
G0 X141.4 Y28.7
G0 Z1.0
G1 F300.0 Z-4.0
G3 F500.0 X136.64 Y36.47 I-29.4 J-12.64
G3 X147.36 I5.36 J31.55
G3 X142.0 Y27.19 I24.64 J-20.41
G3 X141.4 Y28.7 I-30.0 J-11.14
G0 Z3.0
G0 X146.12 Y26.75
G0 Z1.0
G1 F300.0 Z-4.0
G2 F500.0 X154.72 Y38.09 I25.88 J-10.69
G2 X144.28 Y20.01 I-27.72 J3.95
G2 X146.12 Y26.75 I27.72 J-3.95
G0 Z3.0
G0 X156.16 Y28.85
G0 Z1.0
G1 F300.0 Z-4.0
G3 F500.0 X158.98 Y40.9 I-29.16 J13.19
G3 X173.98 Y66.88 I-16.98 J27.12
G3 X183.0 Y75.35 I-16.98 J27.12
G2 X156.16 Y28.85 I-86.0 J18.65
G0 Z3.0
G0 X151.52 Y41.69
G0 Z1.0
G1 F300.0 Z-4.0
G2 F500.0 X131.56 Y42.04 I-9.52 J26.33
G2 X152.44 I10.44 J-25.98
G2 X151.52 Y41.69 I-10.44 J25.98
G0 Z3.0
G0 X154.72 Y45.99
G0 Z1.0
G1 F300.0 Z-4.0
G2 F500.0 X144.28 Y64.07 I17.28 J22.03
G2 X154.72 Y45.99 I-17.28 J-22.03
G0 Z3.0
G0 X159.28
G0 Z1.0
G1 F300.0 Z-4.0
G2 F500.0 X169.72 Y64.07 I27.72 J-3.95
G2 X159.28 Y45.99 I-27.72 J3.95
G0 Z3.0
G0 X157.0 Y53.17
G0 Z1.0
G1 F300.0 Z-4.0
G3 F500.0 X151.64 Y62.45 I-30.0 J-11.14
G3 X162.36 I5.36 J31.55
G3 X157.0 Y53.17 I24.64 J-20.41
G0 Z3.0
G0 X147.36 Y47.61
G0 Z1.0
G1 F300.0 Z-4.0
G3 F500.0 X136.64 I-5.36 J-31.55
G3 X142.0 Y56.88 I-24.64 J20.41
G3 X147.36 Y47.61 I30.0 J11.14
G0 Z3.0
G0 X136.25 Y54.02
G0 Z1.0
G1 F300.0 Z-4.0
G2 F500.0 X129.28 Y45.99 I-24.25 J14.0
G2 X139.72 Y64.07 I27.72 J-3.95
G2 X136.25 Y54.02 I-27.72 J3.95
G0 Z3.0
G0 X129.29 Y58.04
G0 Z1.0
G1 F300.0 Z-4.0
G3 F500.0 X127.0 Y53.17 I27.71 J-16.0
G3 X121.64 Y62.45 I-30.0 J-11.14
G3 X132.36 I5.36 J31.55
G3 X129.29 Y58.04 I24.64 J-20.41
G0 Z3.0
G0 X122.09 Y54.47
G0 Z1.0
G1 F300.0 Z-4.0
G2 F500.0 X124.72 Y45.99 I-25.09 J-12.43
G2 X114.28 Y64.07 I17.28 J22.03
G2 X122.09 Y54.47 I-17.28 J-22.03
G0 Z3.0
G0 X123.55 Y66.21
G0 Z1.0
G1 F300.0 Z-4.0
G2 F500.0 X116.56 Y68.02 I3.45 J27.79
G2 X137.44 I10.44 J-25.98
G2 X123.55 Y66.21 I-10.44 J25.98
G0 Z3.0
G0 X122.48 Y73.72
G0 Z1.0
G1 F300.0 Z-4.0
G3 F500.0 X121.64 Y73.59 I4.52 J-31.68
G3 X127.0 Y82.86 I-24.64 J20.41
G3 X132.36 Y73.59 I30.0 J11.14
G3 X122.48 Y73.72 I-5.36 J-31.55
G0 Z3.0
G0 X118.91 Y76.56
G0 Z1.0
G1 F300.0 Z-4.0
G2 F500.0 X114.28 Y71.97 I-21.91 J17.44
G2 X124.72 Y90.05 I27.72 J-3.95
G2 X118.91 Y76.56 I-27.72 J3.95
G0 Z3.0
G0 X112.0 Y79.15
G0 Z1.0
G1 F300.0 Z-4.0
G3 F500.0 X106.64 Y88.43 I-30.0 J-11.14
G3 X117.36 I5.36 J31.55
G3 X112.0 Y79.15 I24.64 J-20.41
G0 Z3.0
G0 X108.25 Y77.76
G0 Z1.0
G1 F300.0 Z-4.0
G2 F500.0 X109.72 Y71.97 I-26.25 J-9.74
G2 X99.28 Y90.05 I17.28 J22.03
G2 X108.25 Y77.76 I-17.28 J-22.03
G0 Z3.0
G0 X102.36 Y73.59
G0 Z1.0
G1 F300.0 Z-4.0
G3 F500.0 X91.64 I-5.36 J-31.55
G3 X97.0 Y82.86 I-24.64 J20.41
G3 X102.36 Y73.59 I30.0 J11.14
G0 Z3.0
G0 X101.69 Y69.64
G0 Z1.0
G1 F300.0 Z-4.0
G2 F500.0 X107.44 Y68.02 I-4.69 J-27.6
G2 X86.56 I-10.44 J25.98
G2 X101.69 Y69.64 I10.44 J-25.98
G0 Z3.0
G0 X89.91 Y77.91
G0 Z1.0
G1 F300.0 Z-4.0
G2 F500.0 X84.28 Y71.97 I-22.91 J16.09
G2 X94.72 Y90.05 I27.72 J-3.95
G2 X89.91 Y77.91 I-27.72 J3.95
G0 Z3.0
G0 X82.79 Y81.1
G0 Z1.0
G1 F300.0 Z-4.0
G3 F500.0 X82.0 Y79.15 I29.21 J-13.08
G3 X76.64 Y88.43 I-30.0 J-11.14
G3 X87.36 I5.36 J31.55
G3 X82.79 Y81.1 I24.64 J-20.41
G0 Z3.0
G0 X77.77 Y78.96
G0 Z1.0
G1 F300.0 Z-4.0
G2 F500.0 X79.72 Y71.97 I-25.77 J-10.95
G2 X69.28 Y90.05 I17.28 J22.03
G2 X77.77 Y78.96 I-17.28 J-22.03
G0 Z3.0
G0 X79.13 Y92.13
G0 Z1.0
G1 F300.0 Z-4.0
G2 F500.0 X71.56 Y94.0 I2.87 J27.85
G2 X92.44 I10.44 J-25.98
G2 X79.13 Y92.13 I-10.44 J25.98
G0 Z3.0
G0 X78.22 Y99.79
G0 Z1.0
G1 F300.0 Z-4.0
G3 F500.0 X76.64 Y99.57 I3.78 J-31.78
G3 X82.0 Y108.85 I-24.64 J20.41
G3 X87.36 Y99.57 I30.0 J11.14
G3 X78.22 Y99.79 I-5.36 J-31.55
G0 Z3.0
G0 X74.19 Y102.9
G0 Z1.0
G1 F300.0 Z-4.0
G2 F500.0 X69.28 Y97.95 I-22.19 J17.08
G2 X79.72 Y116.03 I27.72 J-3.95
G2 X74.19 Y102.9 I-27.72 J3.95
G0 Z3.0
G0 X67.19 Y105.63
G0 Z1.0
G1 F300.0 Z-4.0
G3 F500.0 X67.0 Y105.14 I29.81 J-11.63
G3 X61.64 Y114.41 I-30.0 J-11.14
G3 X72.36 I5.36 J31.55
G3 X67.19 Y105.63 I24.64 J-20.41
G0 Z3.0
G0 X63.13 Y104.06
G0 Z1.0
G1 F300.0 Z-4.0
G2 F500.0 X64.72 Y97.95 I-26.13 J-10.06
G2 X54.28 Y116.03 I17.28 J22.03
G2 X63.13 Y104.06 I-17.28 J-22.03
G0 Z3.0
G0 X57.36 Y99.57
G0 Z1.0
G1 F300.0 Z-4.0
G3 F500.0 X46.64 I-5.36 J-31.55
G3 X52.0 Y108.85 I-24.64 J20.41
G3 X57.36 Y99.57 I30.0 J11.14
G0 Z3.0
G0 X56.69 Y95.62
G0 Z1.0
G1 F300.0 Z-4.0
G2 F500.0 X62.44 Y94.0 I-4.69 J-27.6
G2 X41.56 I-10.44 J25.98
G2 X56.69 Y95.62 I10.44 J-25.98
G0 Z3.0
G0 X44.91 Y103.89
G0 Z1.0
G1 F300.0 Z-4.0
G2 F500.0 X39.28 Y97.95 I-22.91 J16.09
G2 X49.72 Y116.03 I27.72 J-3.95
G2 X44.91 Y103.89 I-27.72 J3.95
G0 Z3.0
G0 X56.56 Y119.98
G0 Z1.0
G1 F300.0 Z-4.0
G2 F500.0 X77.44 I10.44 J-25.98
G2 X56.56 I-10.44 J25.98
G0 Z3.0
G0 X54.28 Y123.93
G0 Z1.0
G1 F300.0 Z-4.0
G2 F500.0 X64.72 Y142.01 I27.72 J-3.95
G2 X54.28 Y123.93 I-27.72 J3.95
G0 Z3.0
G0 X61.64 Y125.55
G0 Z1.0
G1 F300.0 Z-4.0
G3 F500.0 X67.0 Y134.83 I-24.64 J20.41
G3 X72.36 Y125.55 I30.0 J11.14
G3 X61.64 I-5.36 J-31.55
G0 Z3.0
G0 X72.75 Y131.96
G0 Z1.0
G1 F300.0 Z-4.0
G2 F500.0 X69.28 Y142.01 I24.25 J14.0
G2 X79.72 Y123.93 I-17.28 J-22.03
G2 X72.75 Y131.96 I17.28 J22.03
G0 Z3.0
G0 X79.71 Y135.98
G0 Z1.0
G1 F300.0 Z-4.0
G3 F500.0 X76.64 Y140.39 I-27.71 J-16.0
G3 X87.36 I5.36 J31.55
G3 X82.0 Y131.12 I24.64 J-20.41
G3 X79.71 Y135.98 I-30.0 J-11.14
G0 Z3.0
G0 X86.91 Y132.41
G0 Z1.0
G1 F300.0 Z-4.0
G2 F500.0 X94.72 Y142.01 I25.09 J-12.43
G2 X84.28 Y123.93 I-27.72 J3.95
G2 X86.91 Y132.41 I27.72 J-3.95
G0 Z3.0
G0 X93.46 Y127.96
G0 Z1.0
G1 F300.0 Z-4.0
G3 F500.0 X97.0 Y134.83 I-26.46 J18.0
G3 X102.36 Y125.55 I30.0 J11.14
G3 X91.64 I-5.36 J-31.55
G3 X93.46 Y127.96 I-24.64 J20.41
G0 Z3.0
G0 X94.09 Y121.85
G0 Z1.0
G1 F300.0 Z-4.0
G2 F500.0 X107.44 Y119.98 I2.91 J-27.85
G2 X86.56 I-10.44 J25.98
G2 X94.09 Y121.85 I10.44 J-25.98
G0 Z3.0
G0 X93.17 Y114.19
G0 Z1.0
G1 F300.0 Z-4.0
G3 F500.0 X102.36 Y114.41 I3.83 J31.77
G3 X97.0 Y105.14 I24.64 J-20.41
G3 X91.64 Y114.41 I-30.0 J-11.14
G3 X93.17 Y114.19 I5.36 J31.55
G0 Z3.0
G0 X89.17 Y111.1
G0 Z1.0
G1 F300.0 Z-4.0
G2 F500.0 X94.72 Y97.95 I-22.17 J-17.1
G2 X84.28 Y116.03 I17.28 J22.03
G2 X89.17 Y111.1 I-17.28 J-22.03
G0 Z3.0
G0 X101.49 Y105.53
G0 Z1.0
G1 F300.0 Z-4.0
G2 F500.0 X109.72 Y116.03 I25.51 J-11.53
G2 X99.28 Y97.95 I-27.72 J3.95
G2 X101.49 Y105.53 I27.72 J-3.95
G0 Z3.0
G0 X107.71 Y100.92
G0 Z1.0
G1 F300.0 Z-4.0
G3 F500.0 X112.0 Y108.85 I-25.71 J19.06
G3 X117.36 Y99.57 I30.0 J11.14
G3 X106.64 I-5.36 J-31.55
G3 X107.71 Y100.92 I-24.64 J20.41
G0 Z3.0
G0 X108.38 Y95.78
G0 Z1.0
G1 F300.0 Z-4.0
G2 F500.0 X122.44 Y94.0 I3.62 J-27.76
G2 X101.56 I-10.44 J25.98
G2 X108.38 Y95.78 I10.44 J-25.98
G0 Z3.0
G0 X119.27 Y103.63
G0 Z1.0
G1 F300.0 Z-4.0
G2 F500.0 X114.28 Y116.03 I22.73 J16.36
G2 X124.72 Y97.95 I-17.28 J-22.03
G2 X119.27 Y103.63 I17.28 J22.03
G0 Z3.0
G0 X126.37 Y106.69
G0 Z1.0
G1 F300.0 Z-4.0
G3 F500.0 X121.64 Y114.41 I-29.37 J-12.69
G3 X132.36 I5.36 J31.55
G3 X127.0 Y105.14 I24.64 J-20.41
G3 X126.37 Y106.69 I-30.0 J-11.14
G0 Z3.0
G0 X131.13 Y104.72
G0 Z1.0
G1 F300.0 Z-4.0
G2 F500.0 X139.72 Y116.03 I25.87 J-10.72
G2 X129.28 Y97.95 I-27.72 J3.95
G2 X131.13 Y104.72 I27.72 J-3.95
G0 Z3.0
G0 X137.02 Y100.03
G0 Z1.0
G1 F300.0 Z-4.0
G3 F500.0 X142.0 Y108.85 I-25.02 J19.95
G3 X147.36 Y99.57 I30.0 J11.14
G3 X136.64 I-5.36 J-31.55
G3 X137.02 Y100.03 I-24.64 J20.41
G0 Z3.0
G0 X137.69 Y95.69
G0 Z1.0
G1 F300.0 Z-4.0
G2 F500.0 X152.44 Y94.0 I4.31 J-27.67
G2 X131.56 I-10.44 J25.98
G2 X137.69 Y95.69 I10.44 J-25.98
G0 Z3.0
G0 X136.64 Y88.43
G0 Z1.0
G1 F300.0 Z-4.0
G3 F500.0 X147.36 I5.36 J31.55
G3 X142.0 Y79.15 I24.64 J-20.41
G3 X136.64 Y88.43 I-30.0 J-11.14
G0 Z3.0
G0 X133.56 Y85.88
G0 Z1.0
G1 F300.0 Z-4.0
G2 F500.0 X139.72 Y71.97 I-21.56 J-17.86
G2 X129.28 Y90.05 I17.28 J22.03
G2 X133.56 Y85.88 I-17.28 J-22.03
G0 Z3.0
G0 X146.61 Y79.82
G0 Z1.0
G1 F300.0 Z-4.0
G2 F500.0 X154.72 Y90.05 I25.39 J-11.8
G2 X144.28 Y71.97 I-27.72 J3.95
G2 X146.61 Y79.82 I27.72 J-3.95
G0 Z3.0
G0 X152.93 Y75.25
G0 Z1.0
G1 F300.0 Z-4.0
G3 F500.0 X157.0 Y82.86 I-25.93 J18.75
G3 X162.36 Y73.59 I30.0 J11.14
G3 X151.64 I-5.36 J-31.55
G3 X152.93 Y75.25 I-24.64 J20.41
G0 Z3.0
G0 X153.59 Y69.83
G0 Z1.0
G1 F300.0 Z-4.0
G2 F500.0 X167.44 Y68.02 I3.41 J-27.79
G2 X146.56 I-10.44 J25.98
G2 X153.59 Y69.83 I10.44 J-25.98
G0 Z3.0
G0 X164.31 Y77.59
G0 Z1.0
G1 F300.0 Z-4.0
G2 F500.0 X159.28 Y90.05 I22.69 J16.41
G2 X169.72 Y71.97 I-17.28 J-22.03
G2 X164.31 Y77.59 I17.28 J22.03
G0 Z3.0
G0 X171.41 Y80.63
G0 Z1.0
G1 F300.0 Z-4.0
G3 F500.0 X166.64 Y88.43 I-29.41 J-12.61
G3 X177.36 I5.36 J31.55
G3 X172.0 Y79.15 I24.64 J-20.41
G3 X171.41 Y80.63 I-30.0 J-11.14
G0 Z3.0
G0 X176.11 Y78.69
G0 Z1.0
G1 F300.0 Z-4.0
G2 F500.0 X184.72 Y90.05 I25.89 J-10.67
G2 X174.28 Y71.97 I-27.72 J3.95
G2 X176.11 Y78.69 I27.72 J-3.95
G0 Z3.0
G0 X174.78 Y92.12
G0 Z1.0
G1 F300.0 Z-4.0
G2 F500.0 X161.56 Y94.0 I-2.78 J27.86
G2 X182.44 I10.44 J-25.98
G2 X174.78 Y92.12 I-10.44 J25.98
G0 Z3.0
G0 X175.66 Y99.81
G0 Z1.0
G1 F300.0 Z-4.0
G3 F500.0 X166.64 Y99.57 I-3.66 J-31.79
G3 X172.0 Y108.85 I-24.64 J20.41
G3 X177.36 Y99.57 I30.0 J11.14
G3 X175.66 Y99.81 I-5.36 J-31.55
G0 Z3.0
G0 X179.77 Y102.96
G0 Z1.0
G1 F300.0 Z-4.0
G2 F500.0 X174.28 Y116.03 I22.23 J17.02
G2 X184.72 Y97.95 I-17.28 J-22.03
G2 X179.77 Y102.96 I17.28 J22.03
G0 Z3.0
G0 X183.0 Y112.65
G0 Z1.0
G1 F300.0 Z-4.0
G3 F500.0 X173.98 Y121.12 I-26.0 J-18.65
G3 X158.98 Y147.1 I-31.98 J-1.14
G3 X156.16 Y159.15 I-31.98 J-1.14
G2 X183.0 Y112.65 I-59.16 J-65.15
G0 Z3.0
G0 X169.56 Y115.06
G0 Z1.0
G1 F300.0 Z-4.0
G2 F500.0 X159.28 Y97.95 I-27.56 J4.93
G2 X169.72 Y116.03 I27.72 J-3.95
G2 X169.56 Y115.06 I-27.72 J3.95
G0 Z3.0
G0 X167.44 Y119.98
G0 Z1.0
G1 F300.0 Z-4.0
G2 F500.0 X146.56 I-10.44 J25.98
G2 X167.44 I10.44 J-25.98
G0 Z3.0
G0 X169.72 Y123.93
G0 Z1.0
G1 F300.0 Z-4.0
G2 F500.0 X159.28 Y142.01 I17.28 J22.03
G2 X169.72 Y123.93 I-17.28 J-22.03
G0 Z3.0
G0 X162.36 Y125.55
G0 Z1.0
G1 F300.0 Z-4.0
G3 F500.0 X151.64 I-5.36 J-31.55
G3 X157.0 Y134.83 I-24.64 J20.41
G3 X162.36 Y125.55 I30.0 J11.14
G0 Z3.0
G0 Y114.41
G0 Z1.0
G1 F300.0 Z-4.0
G3 F500.0 X157.0 Y105.14 I24.64 J-20.41
G3 X151.64 Y114.41 I-30.0 J-11.14
G3 X162.36 I5.36 J31.55
G0 Z3.0
G0 X151.25 Y108.0
G0 Z1.0
G1 F300.0 Z-4.0
G2 F500.0 X154.72 Y97.95 I-24.25 J-14.0
G2 X144.28 Y116.03 I17.28 J22.03
G2 X151.25 Y108.0 I-17.28 J-22.03
G0 Z3.0
G0 X144.28 Y123.93
G0 Z1.0
G1 F300.0 Z-4.0
G2 F500.0 X154.72 Y142.01 I27.72 J-3.95
G2 X144.28 Y123.93 I-27.72 J3.95
G0 Z3.0
G0 X139.72
G0 Z1.0
G1 F300.0 Z-4.0
G2 F500.0 X129.28 Y142.01 I17.28 J22.03
G2 X139.72 Y123.93 I-17.28 J-22.03
G0 Z3.0
G0 X137.44 Y119.98
G0 Z1.0
G1 F300.0 Z-4.0
G2 F500.0 X116.56 I-10.44 J25.98
G2 X137.44 I10.44 J-25.98
G0 Z3.0
G0 X132.36 Y125.55
G0 Z1.0
G1 F300.0 Z-4.0
G3 F500.0 X121.64 I-5.36 J-31.55
G3 X127.0 Y134.83 I-24.64 J20.41
G3 X132.36 Y125.55 I30.0 J11.14
G0 Z3.0
G0 X142.0 Y131.12
G0 Z1.0
G1 F300.0 Z-4.0
G3 F500.0 X136.64 Y140.39 I-30.0 J-11.14
G3 X147.36 I5.36 J31.55
G3 X142.0 Y131.12 I24.64 J-20.41
G0 Z3.0
G0 Y143.94
G0 Z1.0
G1 F300.0 Z-4.0
G2 F500.0 X131.56 Y145.96 I0.0 J28.0
G2 X152.44 I10.44 J-25.98
G2 X142.0 Y143.94 I-10.44 J25.98
G0 Z3.0
G0 Y151.98
G0 Z1.0
G1 F300.0 Z-4.0
G3 F500.0 X136.64 Y151.53 I0.0 J-32.0
G3 X142.0 Y160.81 I-24.64 J20.41
G3 X147.36 Y151.53 I30.0 J11.14
G3 X142.0 Y151.98 I-5.36 J-31.55
G0 Z3.0
G0 X148.69 Y156.43
G0 Z1.0
G1 F300.0 Z-4.0
G2 F500.0 X144.28 Y167.99 I23.31 J15.51
G2 X154.72 Y149.91 I-17.28 J-22.03
G2 X148.69 Y156.43 I17.28 J22.03
G0 Z3.0
G0 X137.79 Y161.04
G0 Z1.0
G1 F300.0 Z-4.0
G2 F500.0 X129.28 Y149.91 I-25.79 J10.9
G2 X139.72 Y167.99 I27.72 J-3.95
G2 X137.79 Y161.04 I-27.72 J3.95
G0 Z3.0
G0 X131.83 Y165.72
G0 Z1.0
G1 F300.0 Z-4.0
G3 F500.0 X127.0 Y157.1 I25.17 J-19.76
G3 X121.64 Y166.37 I-30.0 J-11.14
G3 X132.36 I5.36 J31.55
G3 X131.83 Y165.72 I24.64 J-20.41
G0 Z3.0
G0 X131.15 Y170.23
G0 Z1.0
G1 F300.0 Z-4.0
G2 F500.0 X116.56 Y171.94 I-4.15 J27.69
G2 X137.44 I10.44 J-25.98
G2 X131.15 Y170.23 I-10.44 J25.98
G0 Z3.0
G0 X123.84 Y177.81
G0 Z1.0
G1 F300.0 Z-4.0
G3 F500.0 X112.0 Y174.23 I3.16 J-31.84
G3 X82.0 I-15.0 J-28.27
G3 X70.16 Y177.81 I-15.0 J-28.27
G2 X123.84 I26.84 J-83.81
G0 Z3.0
G0 X115.05 Y167.37
G0 Z1.0
G1 F300.0 Z-4.0
G2 F500.0 X124.72 Y149.91 I-18.05 J-21.41
G2 X114.28 Y167.99 I17.28 J22.03
G2 X115.05 Y167.37 I-17.28 J-22.03
G0 Z3.0
G0 X109.72 Y167.99
G0 Z1.0
G1 F300.0 Z-4.0
G2 F500.0 X99.28 Y149.91 I-27.72 J3.95
G2 X109.72 Y167.99 I27.72 J-3.95
G0 Z3.0
G0 X107.44 Y171.94
G0 Z1.0
G1 F300.0 Z-4.0
G2 F500.0 X86.56 I-10.44 J25.98
G2 X107.44 I10.44 J-25.98
G0 Z3.0
G0 X102.36 Y166.37
G0 Z1.0
G1 F300.0 Z-4.0
G3 F500.0 X97.0 Y157.1 I24.64 J-20.41
G3 X91.64 Y166.37 I-30.0 J-11.14
G3 X102.36 I5.36 J31.55
G0 Z3.0
G0 X112.0 Y160.81
G0 Z1.0
G1 F300.0 Z-4.0
G3 F500.0 X117.36 Y151.53 I30.0 J11.14
G3 X106.64 I-5.36 J-31.55
G3 X112.0 Y160.81 I-24.64 J20.41
G0 Z3.0
G0 Y147.98
G0 Z1.0
G1 F300.0 Z-4.0
G2 F500.0 X122.44 Y145.96 I0.0 J-28.0
G2 X101.56 I-10.44 J25.98
G2 X112.0 Y147.98 I10.44 J-25.98
G0 Z3.0
G0 Y139.94
G0 Z1.0
G1 F300.0 Z-4.0
G3 F500.0 X117.36 Y140.39 I0.0 J32.0
G3 X112.0 Y131.12 I24.64 J-20.41
G3 X106.64 Y140.39 I-30.0 J-11.14
G3 X112.0 Y139.94 I5.36 J31.55
G0 Z3.0
G0 X118.69 Y135.49
G0 Z1.0
G1 F300.0 Z-4.0
G2 F500.0 X124.72 Y142.01 I23.31 J-15.51
G2 X114.28 Y123.93 I-27.72 J3.95
G2 X118.69 Y135.49 I27.72 J-3.95
G0 Z3.0
G0 X107.79 Y130.88
G0 Z1.0
G1 F300.0 Z-4.0
G2 F500.0 X109.72 Y123.93 I-25.79 J-10.9
G2 X99.28 Y142.01 I17.28 J22.03
G2 X107.79 Y130.88 I-17.28 J-22.03
G0 Z3.0
G0 X92.44 Y145.96
G0 Z1.0
G1 F300.0 Z-4.0
G2 F500.0 X71.56 I-10.44 J25.98
G2 X92.44 I10.44 J-25.98
G0 Z3.0
G0 X94.72 Y149.91
G0 Z1.0
G1 F300.0 Z-4.0
G2 F500.0 X84.28 Y167.99 I17.28 J22.03
G2 X94.72 Y149.91 I-17.28 J-22.03
G0 Z3.0
G0 X87.36 Y151.53
G0 Z1.0
G1 F300.0 Z-4.0
G3 F500.0 X76.64 I-5.36 J-31.55
G3 X82.0 Y160.81 I-24.64 J20.41
G3 X87.36 Y151.53 I30.0 J11.14
G0 Z3.0
G0 X76.25 Y157.94
G0 Z1.0
G1 F300.0 Z-4.0
G2 F500.0 X69.28 Y149.91 I-24.25 J14.0
G2 X79.72 Y167.99 I27.72 J-3.95
G2 X76.25 Y157.94 I-27.72 J3.95
G0 Z3.0
G0 X79.72 Y64.07
G0 Z1.0
G1 F300.0 Z-4.0
G2 F500.0 X69.28 Y45.99 I-27.72 J3.95
G2 X79.72 Y64.07 I27.72 J-3.95
G0 Z3.0
G0 X51.0 Y14.33
G0 Z1.0
G1 F300.0 Z-4.0
G3 F500.0 X143.0 I46.0 J79.67
G3 X189.0 Y94.0 I-46.0 J79.67
G3 X143.0 Y173.67 I-92.0 J0.0
G3 X51.0 I-46.0 J-79.67
G3 X5.0 Y94.0 I46.0 J-79.67
G3 X51.0 Y14.33 I92.0 J0.0
G0 Z3.0
M5
M30
