(.../pcb-gcode-3.6.2.4/pcb-gcode.ulp)
(Copyright 2005 - 2012 by John Johnson)
(See readme.txt for licensing terms.)
(This file generated from the board:)
(.../projects/DiceCR2302/DiceCR2302.brd)
(Current profile is .../pcb-gcode-3.6.2.4/profiles/mach.pp  )
(This file generated 21.12.2017 23:48)
(Settings from pcb-machine.h)
(spindle on time = 1.0000)
(  Tool Size)
(0.2000  )
(spindle speed = 30000.0000)
(tool change at 0.0000  0.0000  10.0000 )
(feed rate xy = F400   )
(feed rate z  = F250   )
(Z Axis Settings)
(  High     Up        Down     Drill)
(12.7000 	0.5000  	-0.1500 	-2.0000 )
(Settings from pcb-defaults.h)
(isolate min = 0.0000)
(isolate max = 0.1500)
(isolate step = 0.1500)
(Generated bottom outlines, bottom drill, )
(Unit of measure: mm)
(Metric Mode)
G21
(Absolute Coordinates)
G90
S30000
G00 Z12.7000 
G00 X0.0000  Y0.0000  
M03
G04 P1.000000
G00 Z0.5000  
G00 X-10.2888 Y1.6420  
G01 Z-0.1500 F250   
G01 X-10.3170 Y1.6138  F400   
G01 X-10.3537 Y1.5986  
G01 X-12.5063 Y1.5986  
G01 X-12.5430 Y1.6138  
G01 X-12.5712 Y1.6420  
G01 X-12.5864 Y1.6787  
G01 X-12.5864 Y2.3170  
G01 X-19.6434 Y2.2373  
G01 X-19.6834 Y2.2368  
G01 X-19.7215 Y2.2364  
G01 X-24.9444 Y2.2368  
G01 X-24.9444 Y1.8851  
G01 X-24.9596 Y1.8484  
G01 X-24.9878 Y1.8202  
G01 X-25.0245 Y1.8050  
G01 X-26.8931 Y1.8050  
G01 X-26.9298 Y1.8202  
G01 X-26.9580 Y1.8484  
G01 X-26.9732 Y1.8851  
G01 X-26.9732 Y2.2365  
G01 X-26.9853 Y2.2363  
G01 X-27.0260 Y2.2466  
G01 X-27.0627 Y2.2560  
G01 X-27.0993 Y2.2764  
G01 X-27.1324 Y2.2950  
G01 X-27.1625 Y2.3243  
G01 X-27.1896 Y2.3507  
G01 X-27.2110 Y2.3867  
G01 X-27.2304 Y2.4193  
G01 X-27.2418 Y2.4596  
G01 X-27.2520 Y2.4961  
G01 X-27.2526 Y2.5162  
G01 X-31.4468 Y2.5162  
G01 X-31.4468 Y1.8851  
G01 X-31.4620 Y1.8484  
G01 X-31.4902 Y1.8202  
G01 X-31.5269 Y1.8050  
G01 X-33.3955 Y1.8050  
G01 X-33.4322 Y1.8202  
G01 X-33.4604 Y1.8484  
G01 X-33.4756 Y1.8851  
G01 X-33.4756 Y3.0412  
G01 X-35.4361 Y4.1418  
G01 X-40.9972 Y4.1418  
G01 X-40.9972 Y3.6123  
G01 X-41.0124 Y3.5756  
G01 X-41.0406 Y3.5474  
G01 X-41.0773 Y3.5322  
G01 X-42.7427 Y3.5322  
G01 X-42.7794 Y3.5474  
G01 X-42.8076 Y3.5756  
G01 X-42.8228 Y3.6123  
G01 X-42.8228 Y4.1418  
G01 X-52.4272 Y4.1418  
G01 X-52.4272 Y3.6123  
G01 X-52.4424 Y3.5756  
G01 X-52.4706 Y3.5474  
G01 X-52.5073 Y3.5322  
G01 X-54.1727 Y3.5322  
G01 X-54.2094 Y3.5474  
G01 X-54.2376 Y3.5756  
G01 X-54.2528 Y3.6123  
G01 X-54.2528 Y4.1418  
G01 X-63.8572 Y4.1418  
G01 X-63.8572 Y3.6123  
G01 X-63.8724 Y3.5756  
G01 X-63.9006 Y3.5474  
G01 X-63.9373 Y3.5322  
G01 X-65.6027 Y3.5322  
G01 X-65.6394 Y3.5474  
G01 X-65.6676 Y3.5756  
G01 X-65.6828 Y3.6123  
G01 X-65.6828 Y4.1418  
G01 X-66.0799 Y4.1418  
G01 X-66.1570 Y4.1625  
G01 X-66.2262 Y4.2024  
G01 X-66.2826 Y4.2588  
G01 X-66.3225 Y4.3280  
G01 X-66.3432 Y4.4051  
G01 X-66.3432 Y8.9299  
G01 X-66.3225 Y9.0070  
G01 X-66.2826 Y9.0762  
G01 X-66.2262 Y9.1326  
G01 X-66.1570 Y9.1725  
G01 X-66.0799 Y9.1932  
G01 X-63.1682 Y9.1932  
G01 X-63.1682 Y25.0968 
G01 X-64.8099 Y25.0968 
G01 X-64.8870 Y25.1175 
G01 X-64.9562 Y25.1574 
G01 X-65.0126 Y25.2138 
G01 X-65.0525 Y25.2830 
G01 X-65.0732 Y25.3601 
G01 X-65.0732 Y26.3922 
G01 X-65.6027 Y26.3922 
G01 X-65.6394 Y26.4074 
G01 X-65.6676 Y26.4356 
G01 X-65.6828 Y26.4723 
G01 X-65.6828 Y28.1377 
G01 X-65.6676 Y28.1744 
G01 X-65.6394 Y28.2026 
G01 X-65.6027 Y28.2178 
G01 X-63.9373 Y28.2178 
G01 X-63.9006 Y28.2026 
G01 X-63.8724 Y28.1744 
G01 X-63.8572 Y28.1377 
G01 X-63.8572 Y26.4723 
G01 X-63.8724 Y26.4356 
G01 X-63.9006 Y26.4074 
G01 X-63.9373 Y26.3922 
G01 X-64.4668 Y26.3922 
G01 X-64.4668 Y25.7032 
G01 X-53.6432 Y25.7032 
G01 X-53.6432 Y26.3922 
G01 X-54.1727 Y26.3922 
G01 X-54.2094 Y26.4074 
G01 X-54.2376 Y26.4356 
G01 X-54.2528 Y26.4723 
G01 X-54.2528 Y28.1377 
G01 X-54.2376 Y28.1744 
G01 X-54.2094 Y28.2026 
G01 X-54.1727 Y28.2178 
G01 X-52.5073 Y28.2178 
G01 X-52.4706 Y28.2026 
G01 X-52.4424 Y28.1744 
G01 X-52.4272 Y28.1377 
G01 X-52.4272 Y26.4723 
G01 X-52.4424 Y26.4356 
G01 X-52.4706 Y26.4074 
G01 X-52.5073 Y26.3922 
G01 X-53.0368 Y26.3922 
G01 X-53.0368 Y25.7032 
G01 X-42.2132 Y25.7032 
G01 X-42.2132 Y26.3922 
G01 X-42.7427 Y26.3922 
G01 X-42.7794 Y26.4074 
G01 X-42.8076 Y26.4356 
G01 X-42.8228 Y26.4723 
G01 X-42.8228 Y28.1377 
G01 X-42.8076 Y28.1744 
G01 X-42.7794 Y28.2026 
G01 X-42.7427 Y28.2178 
G01 X-41.0773 Y28.2178 
G01 X-41.0406 Y28.2026 
G01 X-41.0124 Y28.1744 
G01 X-40.9972 Y28.1377 
G01 X-40.9972 Y26.4723 
G01 X-41.0124 Y26.4356 
G01 X-41.0406 Y26.4074 
G01 X-41.0773 Y26.3922 
G01 X-41.6068 Y26.3922 
G01 X-41.6068 Y25.3601 
G01 X-41.6275 Y25.2830 
G01 X-41.6674 Y25.2138 
G01 X-41.7238 Y25.1574 
G01 X-41.7930 Y25.1175 
G01 X-41.8701 Y25.0968 
G01 X-56.8468 Y25.0968 
G01 X-56.8468 Y20.2801 
G01 X-56.8675 Y20.2030 
G01 X-56.9074 Y20.1338 
G01 X-56.9638 Y20.0774 
G01 X-57.0330 Y20.0375 
G01 X-57.1101 Y20.0168 
G01 X-61.2918 Y20.0168 
G01 X-61.2918 Y13.0032 
G01 X-53.6432 Y13.0032 
G01 X-53.6432 Y14.9622 
G01 X-54.1727 Y14.9622 
G01 X-54.2094 Y14.9774 
G01 X-54.2376 Y15.0056 
G01 X-54.2528 Y15.0423 
G01 X-54.2528 Y16.7077 
G01 X-54.2376 Y16.7444 
G01 X-54.2094 Y16.7726 
G01 X-54.1727 Y16.7878 
G01 X-52.5073 Y16.7878 
G01 X-52.4706 Y16.7726 
G01 X-52.4424 Y16.7444 
G01 X-52.4272 Y16.7077 
G01 X-52.4272 Y15.0423 
G01 X-52.4424 Y15.0056 
G01 X-52.4706 Y14.9774 
G01 X-52.5073 Y14.9622 
G01 X-53.0368 Y14.9622 
G01 X-53.0368 Y12.6601 
G01 X-53.0575 Y12.5830 
G01 X-53.0974 Y12.5138 
G01 X-53.1538 Y12.4574 
G01 X-53.2230 Y12.4175 
G01 X-53.3001 Y12.3968 
G01 X-61.6349 Y12.3968 
G01 X-61.7120 Y12.4175 
G01 X-61.7812 Y12.4574 
G01 X-61.8376 Y12.5138 
G01 X-61.8775 Y12.5830 
G01 X-61.8982 Y12.6601 
G01 X-61.8982 Y20.3599 
G01 X-61.8775 Y20.4370 
G01 X-61.8376 Y20.5062 
G01 X-61.7812 Y20.5626 
G01 X-61.7120 Y20.6025 
G01 X-61.6349 Y20.6232 
G01 X-57.4532 Y20.6232 
G01 X-57.4532 Y25.0968 
G01 X-62.5618 Y25.0968 
G01 X-62.5618 Y8.8501  
G01 X-62.5825 Y8.7730  
G01 X-62.6224 Y8.7038  
G01 X-62.6788 Y8.6474  
G01 X-62.7480 Y8.6075  
G01 X-62.8251 Y8.5868  
G01 X-65.7368 Y8.5868  
G01 X-65.7368 Y4.7482  
G01 X-65.6828 Y4.7482  
G01 X-65.6828 Y5.2777  
G01 X-65.6676 Y5.3144  
G01 X-65.6394 Y5.3426  
G01 X-65.6027 Y5.3578  
G01 X-63.9373 Y5.3578  
G01 X-63.9006 Y5.3426  
G01 X-63.8724 Y5.3144  
G01 X-63.8572 Y5.2777  
G01 X-63.8572 Y4.7482  
G01 X-54.2528 Y4.7482  
G01 X-54.2528 Y5.2777  
G01 X-54.2376 Y5.3144  
G01 X-54.2094 Y5.3426  
G01 X-54.1727 Y5.3578  
G01 X-52.5073 Y5.3578  
G01 X-52.4706 Y5.3426  
G01 X-52.4424 Y5.3144  
G01 X-52.4272 Y5.2777  
G01 X-52.4272 Y4.7482  
G01 X-42.8228 Y4.7482  
G01 X-42.8228 Y5.2777  
G01 X-42.8076 Y5.3144  
G01 X-42.7794 Y5.3426  
G01 X-42.7427 Y5.3578  
G01 X-41.0773 Y5.3578  
G01 X-41.0406 Y5.3426  
G01 X-41.0124 Y5.3144  
G01 X-40.9972 Y5.2777  
G01 X-40.9972 Y4.7482  
G01 X-35.3586 Y4.7482  
G01 X-35.3205 Y4.7487  
G01 X-35.2801 Y4.7383  
G01 X-35.2432 Y4.7289  
G01 X-35.2067 Y4.7084  
G01 X-33.4756 Y3.7366  
G01 X-33.4756 Y3.7537  
G01 X-33.4604 Y3.7904  
G01 X-33.4322 Y3.8186  
G01 X-33.3955 Y3.8338  
G01 X-31.5269 Y3.8338  
G01 X-31.4902 Y3.8186  
G01 X-31.4620 Y3.7904  
G01 X-31.4468 Y3.7537  
G01 X-31.4468 Y3.1226  
G01 X-26.9732 Y3.1226  
G01 X-26.9732 Y3.7537  
G01 X-26.9580 Y3.7904  
G01 X-26.9298 Y3.8186  
G01 X-26.8931 Y3.8338  
G01 X-25.0245 Y3.8338  
G01 X-24.9878 Y3.8186  
G01 X-24.9596 Y3.7904  
G01 X-24.9444 Y3.7537  
G01 X-24.9444 Y2.8432  
G01 X-19.9882 Y2.8432  
G01 X-19.9882 Y14.3018 
G01 X-23.8522 Y14.3018 
G01 X-23.8522 Y13.7723 
G01 X-23.8674 Y13.7356 
G01 X-23.8956 Y13.7074 
G01 X-23.9323 Y13.6922 
G01 X-25.5977 Y13.6922 
G01 X-25.6344 Y13.7074 
G01 X-25.6626 Y13.7356 
G01 X-25.6778 Y13.7723 
G01 X-25.6778 Y15.4377 
G01 X-25.6626 Y15.4744 
G01 X-25.6344 Y15.5026 
G01 X-25.5977 Y15.5178 
G01 X-23.9323 Y15.5178 
G01 X-23.8956 Y15.5026 
G01 X-23.8674 Y15.4744 
G01 X-23.8522 Y15.4377 
G01 X-23.8522 Y14.9082 
G01 X-19.6451 Y14.9082 
G01 X-19.5680 Y14.8875 
G01 X-19.4988 Y14.8476 
G01 X-19.4424 Y14.7912 
G01 X-19.4025 Y14.7220 
G01 X-19.3818 Y14.6449 
G01 X-19.3818 Y2.8466  
G01 X-12.5864 Y2.9234  
G01 X-12.5864 Y3.8313  
G01 X-12.5712 Y3.8680  
G01 X-12.5430 Y3.8962  
G01 X-12.5063 Y3.9114  
G01 X-10.3537 Y3.9114  
G01 X-10.3170 Y3.8962  
G01 X-10.2888 Y3.8680  
G01 X-10.2736 Y3.8313  
G01 X-10.2736 Y1.6787  
G01 X-10.2888 Y1.6420  
G00 Z0.5000  
G00 X-24.9596 Y6.3696  
G01 Z-0.1500 F250   
G01 X-24.9878 Y6.3414  F400   
G01 X-25.0245 Y6.3262  
G01 X-26.8931 Y6.3262  
G01 X-26.9298 Y6.3414  
G01 X-26.9580 Y6.3696  
G01 X-26.9732 Y6.4063  
G01 X-26.9732 Y7.5216  
G01 X-28.6848 Y8.4023  
G01 X-28.7203 Y8.4206  
G01 X-28.7492 Y8.4355  
G01 X-28.7612 Y8.4442  
G01 X-28.7842 Y8.4672  
G01 X-28.8083 Y8.4891  
G01 X-28.8176 Y8.5006  
G01 X-28.8339 Y8.5288  
G01 X-28.8515 Y8.5562  
G01 X-28.8575 Y8.5698  
G01 X-28.8621 Y8.5868  
G01 X-31.9284 Y8.5868  
G01 X-31.9702 Y8.3550  
G01 X-31.5269 Y8.3550  
G01 X-31.4902 Y8.3398  
G01 X-31.4620 Y8.3116  
G01 X-31.4468 Y8.2749  
G01 X-31.4468 Y6.4063  
G01 X-31.4620 Y6.3696  
G01 X-31.4902 Y6.3414  
G01 X-31.5269 Y6.3262  
G01 X-33.3955 Y6.3262  
G01 X-33.4322 Y6.3414  
G01 X-33.4604 Y6.3696  
G01 X-33.4756 Y6.4063  
G01 X-33.4756 Y8.2749  
G01 X-33.4604 Y8.3116  
G01 X-33.4322 Y8.3398  
G01 X-33.3955 Y8.3550  
G01 X-32.5864 Y8.3550  
G01 X-32.4850 Y8.9171  
G01 X-32.4850 Y8.9299  
G01 X-32.4779 Y8.9563  
G01 X-32.4731 Y8.9831  
G01 X-32.4676 Y8.9947  
G01 X-32.4643 Y9.0070  
G01 X-32.4507 Y9.0306  
G01 X-32.4391 Y9.0553  
G01 X-32.4244 Y9.0762  
G01 X-32.4051 Y9.0955  
G01 X-32.3875 Y9.1163  
G01 X-32.3770 Y9.1236  
G01 X-32.3444 Y9.1463  
G01 X-32.3220 Y9.1618  
G01 X-32.3099 Y9.1661  
G01 X-32.2988 Y9.1725  
G01 X-32.2725 Y9.1796  
G01 X-32.2468 Y9.1888  
G01 X-32.2341 Y9.1899  
G01 X-32.2217 Y9.1932  
G01 X-32.1945 Y9.1932  
G01 X-32.1673 Y9.1955  
G01 X-32.1547 Y9.1932  
G01 X-28.8791 Y9.1932  
G01 X-28.9036 Y17.1185 
G01 X-28.9039 Y17.1575 
G01 X-28.8936 Y17.1967 
G01 X-28.8837 Y17.2348 
G01 X-28.8638 Y17.2697 
G01 X-28.8442 Y17.3042 
G01 X-28.8160 Y17.3328 
G01 X-28.7882 Y17.3610 
G01 X-28.7535 Y17.3813 
G01 X-28.7193 Y17.4014 
G01 X-28.6802 Y17.4121 
G01 X-28.6423 Y17.4225 
G01 X-28.6016 Y17.4228 
G01 X-25.6778 Y17.4422 
G01 X-25.6778 Y17.9777 
G01 X-25.6626 Y18.0144 
G01 X-25.6344 Y18.0426 
G01 X-25.5977 Y18.0578 
G01 X-23.9323 Y18.0578 
G01 X-23.8956 Y18.0426 
G01 X-23.8674 Y18.0144 
G01 X-23.8522 Y17.9777 
G01 X-23.8522 Y16.3123 
G01 X-23.8674 Y16.2756 
G01 X-23.8956 Y16.2474 
G01 X-23.9323 Y16.2322 
G01 X-25.5977 Y16.2322 
G01 X-25.6344 Y16.2474 
G01 X-25.6626 Y16.2756 
G01 X-25.6778 Y16.3123 
G01 X-25.6778 Y16.8358 
G01 X-28.2963 Y16.8184 
G01 X-28.2719 Y8.9304  
G01 X-28.2718 Y8.8905  
G01 X-28.2717 Y8.8717  
G01 X-26.9732 Y8.2035  
G01 X-26.9732 Y8.2749  
G01 X-26.9580 Y8.3116  
G01 X-26.9298 Y8.3398  
G01 X-26.8931 Y8.3550  
G01 X-25.0245 Y8.3550  
G01 X-24.9878 Y8.3398  
G01 X-24.9596 Y8.3116  
G01 X-24.9444 Y8.2749  
G01 X-24.9444 Y6.4063  
G01 X-24.9596 Y6.3696  
G00 Z0.5000  
G00 X-28.9674 Y11.8788 
G01 Z-0.1500 F250   
G01 X-29.0238 Y11.8224 F400   
G01 X-29.0930 Y11.7825 
G01 X-29.1701 Y11.7618 
G01 X-62.2699 Y11.7618 
G01 X-62.3470 Y11.7825 
G01 X-62.4162 Y11.8224 
G01 X-62.4726 Y11.8788 
G01 X-62.5125 Y11.9480 
G01 X-62.5332 Y12.0251 
G01 X-62.5332 Y20.9949 
G01 X-62.5125 Y21.0720 
G01 X-62.4726 Y21.1412 
G01 X-62.4162 Y21.1976 
G01 X-62.3470 Y21.2375 
G01 X-62.2699 Y21.2582 
G01 X-59.9932 Y21.2582 
G01 X-59.9932 Y21.3122 
G01 X-60.5227 Y21.3122 
G01 X-60.5594 Y21.3274 
G01 X-60.5876 Y21.3556 
G01 X-60.6028 Y21.3923 
G01 X-60.6028 Y23.0577 
G01 X-60.5876 Y23.0944 
G01 X-60.5594 Y23.1226 
G01 X-60.5227 Y23.1378 
G01 X-58.8573 Y23.1378 
G01 X-58.8206 Y23.1226 
G01 X-58.7924 Y23.0944 
G01 X-58.7772 Y23.0577 
G01 X-58.7772 Y21.3923 
G01 X-58.7924 Y21.3556 
G01 X-58.8206 Y21.3274 
G01 X-58.8573 Y21.3122 
G01 X-59.3868 Y21.3122 
G01 X-59.3868 Y20.9151 
G01 X-59.4075 Y20.8380 
G01 X-59.4474 Y20.7688 
G01 X-59.5038 Y20.7124 
G01 X-59.5730 Y20.6725 
G01 X-59.6501 Y20.6518 
G01 X-61.9268 Y20.6518 
G01 X-61.9268 Y12.3682 
G01 X-37.1332 Y12.3682 
G01 X-37.1332 Y13.6922 
G01 X-37.6627 Y13.6922 
G01 X-37.6994 Y13.7074 
G01 X-37.7276 Y13.7356 
G01 X-37.7428 Y13.7723 
G01 X-37.7428 Y15.4377 
G01 X-37.7276 Y15.4744 
G01 X-37.6994 Y15.5026 
G01 X-37.6627 Y15.5178 
G01 X-35.9973 Y15.5178 
G01 X-35.9606 Y15.5026 
G01 X-35.9324 Y15.4744 
G01 X-35.9172 Y15.4377 
G01 X-35.9172 Y13.7723 
G01 X-35.9324 Y13.7356 
G01 X-35.9606 Y13.7074 
G01 X-35.9973 Y13.6922 
G01 X-36.5268 Y13.6922 
G01 X-36.5268 Y12.3682 
G01 X-29.5132 Y12.3682 
G01 X-29.5132 Y19.7249 
G01 X-29.4925 Y19.8020 
G01 X-29.4526 Y19.8712 
G01 X-29.3962 Y19.9276 
G01 X-29.3270 Y19.9675 
G01 X-29.2499 Y19.9882 
G01 X-25.6778 Y19.9882 
G01 X-25.6778 Y20.5177 
G01 X-25.6626 Y20.5544 
G01 X-25.6344 Y20.5826 
G01 X-25.5977 Y20.5978 
G01 X-23.9323 Y20.5978 
G01 X-23.8956 Y20.5826 
G01 X-23.8674 Y20.5544 
G01 X-23.8522 Y20.5177 
G01 X-23.8522 Y18.8523 
G01 X-23.8674 Y18.8156 
G01 X-23.8956 Y18.7874 
G01 X-23.9323 Y18.7722 
G01 X-25.5977 Y18.7722 
G01 X-25.6344 Y18.7874 
G01 X-25.6626 Y18.8156 
G01 X-25.6778 Y18.8523 
G01 X-25.6778 Y19.3818 
G01 X-28.9068 Y19.3818 
G01 X-28.9068 Y12.0251 
G01 X-28.9275 Y11.9480 
G01 X-28.9674 Y11.8788 
G00 Z0.5000  
G00 X-31.4874 Y13.7356 
G01 Z-0.1500 F250   
G01 X-31.5156 Y13.7074 F400   
G01 X-31.5523 Y13.6922 
G01 X-33.2177 Y13.6922 
G01 X-33.2544 Y13.7074 
G01 X-33.2826 Y13.7356 
G01 X-33.2978 Y13.7723 
G01 X-33.2978 Y14.3018 
G01 X-34.9649 Y14.3018 
G01 X-35.0420 Y14.3225 
G01 X-35.1112 Y14.3624 
G01 X-35.1676 Y14.4188 
G01 X-35.2075 Y14.4880 
G01 X-35.2282 Y14.5651 
G01 X-35.2282 Y18.1118 
G01 X-39.7272 Y18.1118 
G01 X-39.7272 Y17.5823 
G01 X-39.7424 Y17.5456 
G01 X-39.7706 Y17.5174 
G01 X-39.8073 Y17.5022 
G01 X-41.4727 Y17.5022 
G01 X-41.5094 Y17.5174 
G01 X-41.5376 Y17.5456 
G01 X-41.5528 Y17.5823 
G01 X-41.5528 Y19.2477 
G01 X-41.5376 Y19.2844 
G01 X-41.5094 Y19.3126 
G01 X-41.4727 Y19.3278 
G01 X-39.8073 Y19.3278 
G01 X-39.7706 Y19.3126 
G01 X-39.7424 Y19.2844 
G01 X-39.7272 Y19.2477 
G01 X-39.7272 Y18.7182 
G01 X-34.8851 Y18.7182 
G01 X-34.8080 Y18.6975 
G01 X-34.7388 Y18.6576 
G01 X-34.6824 Y18.6012 
G01 X-34.6425 Y18.5320 
G01 X-34.6218 Y18.4549 
G01 X-34.6218 Y14.9082 
G01 X-33.2978 Y14.9082 
G01 X-33.2978 Y15.4377 
G01 X-33.2826 Y15.4744 
G01 X-33.2544 Y15.5026 
G01 X-33.2177 Y15.5178 
G01 X-31.5523 Y15.5178 
G01 X-31.5156 Y15.5026 
G01 X-31.4874 Y15.4744 
G01 X-31.4722 Y15.4377 
G01 X-31.4722 Y13.7723 
G01 X-31.4874 Y13.7356 
G00 Z0.5000  
G00 X-31.4874 Y16.2756 
G01 Z-0.1500 F250   
G01 X-31.5156 Y16.2474 F400   
G01 X-31.5523 Y16.2322 
G01 X-33.2177 Y16.2322 
G01 X-33.2544 Y16.2474 
G01 X-33.2826 Y16.2756 
G01 X-33.2978 Y16.3123 
G01 X-33.2978 Y16.8418 
G01 X-34.3299 Y16.8418 
G01 X-34.4070 Y16.8625 
G01 X-34.4762 Y16.9024 
G01 X-34.5326 Y16.9588 
G01 X-34.5725 Y17.0280 
G01 X-34.5932 Y17.1051 
G01 X-34.5932 Y18.7468 
G01 X-37.5049 Y18.7468 
G01 X-37.5820 Y18.7675 
G01 X-37.6512 Y18.8074 
G01 X-37.7076 Y18.8638 
G01 X-37.7475 Y18.9330 
G01 X-37.7682 Y19.0101 
G01 X-37.7682 Y20.0168 
G01 X-46.0518 Y20.0168 
G01 X-46.0518 Y14.5651 
G01 X-46.0725 Y14.4880 
G01 X-46.1124 Y14.4188 
G01 X-46.1688 Y14.3624 
G01 X-46.2380 Y14.3225 
G01 X-46.3151 Y14.3018 
G01 X-47.3472 Y14.3018 
G01 X-47.3472 Y13.7723 
G01 X-47.3624 Y13.7356 
G01 X-47.3906 Y13.7074 
G01 X-47.4273 Y13.6922 
G01 X-49.0927 Y13.6922 
G01 X-49.1294 Y13.7074 
G01 X-49.1576 Y13.7356 
G01 X-49.1728 Y13.7723 
G01 X-49.1728 Y15.4377 
G01 X-49.1576 Y15.4744 
G01 X-49.1294 Y15.5026 
G01 X-49.0927 Y15.5178 
G01 X-47.4273 Y15.5178 
G01 X-47.3906 Y15.5026 
G01 X-47.3624 Y15.4744 
G01 X-47.3472 Y15.4377 
G01 X-47.3472 Y14.9082 
G01 X-46.6582 Y14.9082 
G01 X-46.6582 Y20.0168 
G01 X-48.2999 Y20.0168 
G01 X-48.3770 Y20.0375 
G01 X-48.4462 Y20.0774 
G01 X-48.5026 Y20.1338 
G01 X-48.5425 Y20.2030 
G01 X-48.5632 Y20.2801 
G01 X-48.5632 Y21.3122 
G01 X-49.0927 Y21.3122 
G01 X-49.1294 Y21.3274 
G01 X-49.1576 Y21.3556 
G01 X-49.1728 Y21.3923 
G01 X-49.1728 Y23.0577 
G01 X-49.1576 Y23.0944 
G01 X-49.1294 Y23.1226 
G01 X-49.0927 Y23.1378 
G01 X-47.4273 Y23.1378 
G01 X-47.3906 Y23.1226 
G01 X-47.3624 Y23.0944 
G01 X-47.3472 Y23.0577 
G01 X-47.3472 Y21.3923 
G01 X-47.3624 Y21.3556 
G01 X-47.3906 Y21.3274 
G01 X-47.4273 Y21.3122 
G01 X-47.9568 Y21.3122 
G01 X-47.9568 Y20.6232 
G01 X-37.4251 Y20.6232 
G01 X-37.3480 Y20.6025 
G01 X-37.2788 Y20.5626 
G01 X-37.2224 Y20.5062 
G01 X-37.1825 Y20.4370 
G01 X-37.1618 Y20.3599 
G01 X-37.1618 Y19.3532 
G01 X-34.2501 Y19.3532 
G01 X-34.1730 Y19.3325 
G01 X-34.1038 Y19.2926 
G01 X-34.0474 Y19.2362 
G01 X-34.0075 Y19.1670 
G01 X-33.9868 Y19.0899 
G01 X-33.9868 Y17.4482 
G01 X-33.2978 Y17.4482 
G01 X-33.2978 Y17.9777 
G01 X-33.2826 Y18.0144 
G01 X-33.2544 Y18.0426 
G01 X-33.2177 Y18.0578 
G01 X-31.5523 Y18.0578 
G01 X-31.5156 Y18.0426 
G01 X-31.4874 Y18.0144 
G01 X-31.4722 Y17.9777 
G01 X-31.4722 Y16.3123 
G01 X-31.4874 Y16.2756 
G00 Z0.5000  
G00 X-31.4874 Y18.8156 
G01 Z-0.1500 F250   
G01 X-31.5156 Y18.7874 F400   
G01 X-31.5523 Y18.7722 
G01 X-33.2177 Y18.7722 
G01 X-33.2544 Y18.7874 
G01 X-33.2826 Y18.8156 
G01 X-33.2978 Y18.8523 
G01 X-33.2978 Y19.3818 
G01 X-36.8699 Y19.3818 
G01 X-36.9470 Y19.4025 
G01 X-37.0162 Y19.4424 
G01 X-37.0726 Y19.4988 
G01 X-37.1125 Y19.5680 
G01 X-37.1332 Y19.6451 
G01 X-37.1332 Y21.3122 
G01 X-37.6627 Y21.3122 
G01 X-37.6994 Y21.3274 
G01 X-37.7276 Y21.3556 
G01 X-37.7428 Y21.3923 
G01 X-37.7428 Y23.0577 
G01 X-37.7276 Y23.0944 
G01 X-37.6994 Y23.1226 
G01 X-37.6627 Y23.1378 
G01 X-37.0684 Y23.1378 
G01 X-37.1213 Y24.4618 
G01 X-56.2118 Y24.4618 
G01 X-56.2118 Y19.6451 
G01 X-56.2325 Y19.5680 
G01 X-56.2724 Y19.4988 
G01 X-56.3288 Y19.4424 
G01 X-56.3980 Y19.4025 
G01 X-56.4751 Y19.3818 
G01 X-60.6568 Y19.3818 
G01 X-60.6568 Y14.9082 
G01 X-60.6028 Y14.9082 
G01 X-60.6028 Y15.4377 
G01 X-60.5876 Y15.4744 
G01 X-60.5594 Y15.5026 
G01 X-60.5227 Y15.5178 
G01 X-58.8573 Y15.5178 
G01 X-58.8206 Y15.5026 
G01 X-58.7924 Y15.4744 
G01 X-58.7772 Y15.4377 
G01 X-58.7772 Y13.7723 
G01 X-58.7924 Y13.7356 
G01 X-58.8206 Y13.7074 
G01 X-58.8573 Y13.6922 
G01 X-60.5227 Y13.6922 
G01 X-60.5594 Y13.7074 
G01 X-60.5876 Y13.7356 
G01 X-60.6028 Y13.7723 
G01 X-60.6028 Y14.3018 
G01 X-60.9999 Y14.3018 
G01 X-61.0770 Y14.3225 
G01 X-61.1462 Y14.3624 
G01 X-61.2026 Y14.4188 
G01 X-61.2425 Y14.4880 
G01 X-61.2632 Y14.5651 
G01 X-61.2632 Y19.7249 
G01 X-61.2425 Y19.8020 
G01 X-61.2026 Y19.8712 
G01 X-61.1462 Y19.9276 
G01 X-61.0770 Y19.9675 
G01 X-60.9999 Y19.9882 
G01 X-56.8182 Y19.9882 
G01 X-56.8182 Y24.8049 
G01 X-56.7975 Y24.8820 
G01 X-56.7576 Y24.9512 
G01 X-56.7012 Y25.0076 
G01 X-56.6320 Y25.0475 
G01 X-56.5549 Y25.0682 
G01 X-36.8361 Y25.0682 
G01 X-36.8022 Y25.0695 
G01 X-36.7901 Y25.0682 
G01 X-36.7574 Y25.0594 
G01 X-36.7244 Y25.0520 
G01 X-36.7130 Y25.0475 
G01 X-36.6837 Y25.0306 
G01 X-36.6537 Y25.0149 
G01 X-36.6199 Y24.9837 
G01 X-36.5950 Y24.9607 
G01 X-36.5705 Y24.9218 
G01 X-36.5524 Y24.8932 
G01 X-36.5475 Y24.8820 
G01 X-36.5387 Y24.8493 
G01 X-36.5286 Y24.8170 
G01 X-36.5268 Y24.8049 
G01 X-36.5268 Y24.7711 
G01 X-36.4615 Y23.1378 
G01 X-35.9973 Y23.1378 
G01 X-35.9606 Y23.1226 
G01 X-35.9324 Y23.0944 
G01 X-35.9172 Y23.0577 
G01 X-35.9172 Y21.3923 
G01 X-35.9324 Y21.3556 
G01 X-35.9606 Y21.3274 
G01 X-35.9973 Y21.3122 
G01 X-36.5268 Y21.3122 
G01 X-36.5268 Y19.9882 
G01 X-33.2978 Y19.9882 
G01 X-33.2978 Y20.5177 
G01 X-33.2826 Y20.5544 
G01 X-33.2544 Y20.5826 
G01 X-33.2177 Y20.5978 
G01 X-31.5523 Y20.5978 
G01 X-31.5156 Y20.5826 
G01 X-31.4874 Y20.5544 
G01 X-31.4722 Y20.5177 
G01 X-31.4722 Y18.8523 
G01 X-31.4874 Y18.8156 
G00 Z0.5000  
G00 X-31.4874 Y21.3556 
G01 Z-0.1500 F250   
G01 X-31.5156 Y21.3274 F400   
G01 X-31.5523 Y21.3122 
G01 X-33.2177 Y21.3122 
G01 X-33.2544 Y21.3274 
G01 X-33.2826 Y21.3556 
G01 X-33.2978 Y21.3923 
G01 X-33.2978 Y23.0577 
G01 X-33.2826 Y23.0944 
G01 X-33.2544 Y23.1226 
G01 X-33.2177 Y23.1378 
G01 X-32.6882 Y23.1378 
G01 X-32.6882 Y25.1222 
G01 X-33.2177 Y25.1222 
G01 X-33.2544 Y25.1374 
G01 X-33.2826 Y25.1656 
G01 X-33.2978 Y25.2023 
G01 X-33.2978 Y26.8677 
G01 X-33.2826 Y26.9044 
G01 X-33.2544 Y26.9326 
G01 X-33.2177 Y26.9478 
G01 X-32.6882 Y26.9478 
G01 X-32.6882 Y28.6149 
G01 X-32.6675 Y28.6920 
G01 X-32.6276 Y28.7612 
G01 X-32.5712 Y28.8176 
G01 X-32.5020 Y28.8575 
G01 X-32.4249 Y28.8782 
G01 X-15.3656 Y28.8782 
G01 X-15.0264 Y29.2174 
G01 X-15.0264 Y30.8213 
G01 X-15.0112 Y30.8580 
G01 X-14.9830 Y30.8862 
G01 X-14.9463 Y30.9014 
G01 X-12.9937 Y30.9014 
G01 X-12.9570 Y30.8862 
G01 X-12.9288 Y30.8580 
G01 X-12.9136 Y30.8213 
G01 X-12.9136 Y28.8687 
G01 X-12.9288 Y28.8320 
G01 X-12.9570 Y28.8038 
G01 X-12.9937 Y28.7886 
G01 X-14.5976 Y28.7886 
G01 X-15.0538 Y28.3324 
G01 X-15.1230 Y28.2925 
G01 X-15.2001 Y28.2718 
G01 X-32.0818 Y28.2718 
G01 X-32.0818 Y26.9478 
G01 X-31.5523 Y26.9478 
G01 X-31.5156 Y26.9326 
G01 X-31.4874 Y26.9044 
G01 X-31.4722 Y26.8677 
G01 X-31.4722 Y25.2023 
G01 X-31.4874 Y25.1656 
G01 X-31.5156 Y25.1374 
G01 X-31.5523 Y25.1222 
G01 X-32.0818 Y25.1222 
G01 X-32.0818 Y23.1378 
G01 X-31.5523 Y23.1378 
G01 X-31.5156 Y23.1226 
G01 X-31.4874 Y23.0944 
G01 X-31.4722 Y23.0577 
G01 X-31.4722 Y21.3923 
G01 X-31.4874 Y21.3556 
G00 Z0.5000  
G00 X-25.6626 Y21.3556 
G01 Z-0.1500 F250   
G01 X-25.6778 Y21.3923 F400   
G01 X-25.6778 Y23.0577 
G01 X-25.6626 Y23.0944 
G01 X-25.6344 Y23.1226 
G01 X-25.5977 Y23.1378 
G01 X-25.0682 Y23.1378 
G01 X-25.0682 Y25.1222 
G01 X-25.5977 Y25.1222 
G01 X-25.6344 Y25.1374 
G01 X-25.6626 Y25.1656 
G01 X-25.6778 Y25.2023 
G01 X-25.6778 Y26.8677 
G01 X-25.6626 Y26.9044 
G01 X-25.6344 Y26.9326 
G01 X-25.5977 Y26.9478 
G01 X-23.9323 Y26.9478 
G01 X-23.8956 Y26.9326 
G01 X-23.8674 Y26.9044 
G01 X-23.8522 Y26.8677 
G01 X-23.8522 Y25.2023 
G01 X-23.8674 Y25.1656 
G01 X-23.8956 Y25.1374 
G01 X-23.9323 Y25.1222 
G01 X-24.4618 Y25.1222 
G01 X-24.4618 Y23.1378 
G01 X-23.9323 Y23.1378 
G01 X-23.8956 Y23.1226 
G01 X-23.8674 Y23.0944 
G01 X-23.8522 Y23.0577 
G01 X-23.8522 Y21.3923 
G01 X-23.8674 Y21.3556 
G01 X-23.8956 Y21.3274 
G01 X-23.9323 Y21.3122 
G01 X-25.5977 Y21.3122 
G01 X-25.6344 Y21.3274 
G01 X-25.6626 Y21.3556 
G00 Z0.5000  
G00 X-12.5430 Y21.6138 
G01 Z-0.1500 F250   
G01 X-12.5712 Y21.6420 F400   
G01 X-12.5864 Y21.6787 
G01 X-12.5864 Y23.8313 
G01 X-12.5712 Y23.8680 
G01 X-12.5430 Y23.8962 
G01 X-12.5063 Y23.9114 
G01 X-11.7332 Y23.9114 
G01 X-11.7332 Y28.7886 
G01 X-12.4063 Y28.7886 
G01 X-12.4430 Y28.8038 
G01 X-12.4712 Y28.8320 
G01 X-12.4864 Y28.8687 
G01 X-12.4864 Y30.8213 
G01 X-12.4712 Y30.8580 
G01 X-12.4430 Y30.8862 
G01 X-12.4063 Y30.9014 
G01 X-10.4537 Y30.9014 
G01 X-10.4170 Y30.8862 
G01 X-10.3888 Y30.8580 
G01 X-10.3736 Y30.8213 
G01 X-10.3736 Y28.8687 
G01 X-10.3888 Y28.8320 
G01 X-10.4170 Y28.8038 
G01 X-10.4537 Y28.7886 
G01 X-11.1268 Y28.7886 
G01 X-11.1268 Y23.9114 
G01 X-10.3537 Y23.9114 
G01 X-10.3170 Y23.8962 
G01 X-10.2888 Y23.8680 
G01 X-10.2736 Y23.8313 
G01 X-10.2736 Y21.6787 
G01 X-10.2888 Y21.6420 
G01 X-10.3170 Y21.6138 
G01 X-10.3537 Y21.5986 
G01 X-12.5063 Y21.5986 
G01 X-12.5430 Y21.6138 
G00 Z0.5000  
G00 X-9.9030 Y28.8038 
G01 Z-0.1500 F250   
G01 X-9.9312 Y28.8320 F400   
G01 X-9.9464 Y28.8687 
G01 X-9.9464 Y30.8213 
G01 X-9.9312 Y30.8580 
G01 X-9.9030 Y30.8862 
G01 X-9.8663 Y30.9014 
G01 X-7.9137 Y30.9014 
G01 X-7.8770 Y30.8862 
G01 X-7.8488 Y30.8580 
G01 X-7.8336 Y30.8213 
G01 X-7.8336 Y28.8687 
G01 X-7.8488 Y28.8320 
G01 X-7.8770 Y28.8038 
G01 X-7.9137 Y28.7886 
G01 X-9.8663 Y28.7886 
G01 X-9.9030 Y28.8038 
G00 Z0.5000  
G00 X-35.9324 Y28.9756 
G01 Z-0.1500 F250   
G01 X-35.9606 Y28.9474 F400   
G01 X-35.9973 Y28.9322 
G01 X-37.6627 Y28.9322 
G01 X-37.6994 Y28.9474 
G01 X-37.7276 Y28.9756 
G01 X-37.7428 Y29.0123 
G01 X-37.7428 Y29.5418 
G01 X-40.9972 Y29.5418 
G01 X-40.9972 Y29.0123 
G01 X-41.0124 Y28.9756 
G01 X-41.0406 Y28.9474 
G01 X-41.0773 Y28.9322 
G01 X-42.7427 Y28.9322 
G01 X-42.7794 Y28.9474 
G01 X-42.8076 Y28.9756 
G01 X-42.8228 Y29.0123 
G01 X-42.8228 Y30.6777 
G01 X-42.8076 Y30.7144 
G01 X-42.7794 Y30.7426 
G01 X-42.7427 Y30.7578 
G01 X-41.0773 Y30.7578 
G01 X-41.0406 Y30.7426 
G01 X-41.0124 Y30.7144 
G01 X-40.9972 Y30.6777 
G01 X-40.9972 Y30.1482 
G01 X-37.7428 Y30.1482 
G01 X-37.7428 Y30.6777 
G01 X-37.7276 Y30.7144 
G01 X-37.6994 Y30.7426 
G01 X-37.6627 Y30.7578 
G01 X-35.9973 Y30.7578 
G01 X-35.9606 Y30.7426 
G01 X-35.9324 Y30.7144 
G01 X-35.9172 Y30.6777 
G01 X-35.9172 Y29.0123 
G01 X-35.9324 Y28.9756 
G00 Z0.5000  
G00 X-47.3624 Y28.9756 
G01 Z-0.1500 F250   
G01 X-47.3906 Y28.9474 F400   
G01 X-47.4273 Y28.9322 
G01 X-49.0927 Y28.9322 
G01 X-49.1294 Y28.9474 
G01 X-49.1576 Y28.9756 
G01 X-49.1728 Y29.0123 
G01 X-49.1728 Y29.5418 
G01 X-52.4272 Y29.5418 
G01 X-52.4272 Y29.0123 
G01 X-52.4424 Y28.9756 
G01 X-52.4706 Y28.9474 
G01 X-52.5073 Y28.9322 
G01 X-54.1727 Y28.9322 
G01 X-54.2094 Y28.9474 
G01 X-54.2376 Y28.9756 
G01 X-54.2528 Y29.0123 
G01 X-54.2528 Y30.6777 
G01 X-54.2376 Y30.7144 
G01 X-54.2094 Y30.7426 
G01 X-54.1727 Y30.7578 
G01 X-52.5073 Y30.7578 
G01 X-52.4706 Y30.7426 
G01 X-52.4424 Y30.7144 
G01 X-52.4272 Y30.6777 
G01 X-52.4272 Y30.1482 
G01 X-49.1728 Y30.1482 
G01 X-49.1728 Y30.6777 
G01 X-49.1576 Y30.7144 
G01 X-49.1294 Y30.7426 
G01 X-49.0927 Y30.7578 
G01 X-47.4273 Y30.7578 
G01 X-47.3906 Y30.7426 
G01 X-47.3624 Y30.7144 
G01 X-47.3472 Y30.6777 
G01 X-47.3472 Y29.0123 
G01 X-47.3624 Y28.9756 
G00 Z0.5000  
G00 X-47.3906 Y19.3126 
G01 Z-0.1500 F250   
G01 X-47.3624 Y19.2844 F400   
G01 X-47.3472 Y19.2477 
G01 X-47.3472 Y17.5823 
G01 X-47.3624 Y17.5456 
G01 X-47.3906 Y17.5174 
G01 X-47.4273 Y17.5022 
G01 X-49.0927 Y17.5022 
G01 X-49.1294 Y17.5174 
G01 X-49.1576 Y17.5456 
G01 X-49.1728 Y17.5823 
G01 X-49.1728 Y18.1118 
G01 X-52.4272 Y18.1118 
G01 X-52.4272 Y17.5823 
G01 X-52.4424 Y17.5456 
G01 X-52.4706 Y17.5174 
G01 X-52.5073 Y17.5022 
G01 X-54.1727 Y17.5022 
G01 X-54.2094 Y17.5174 
G01 X-54.2376 Y17.5456 
G01 X-54.2528 Y17.5823 
G01 X-54.2528 Y19.2477 
G01 X-54.2376 Y19.2844 
G01 X-54.2094 Y19.3126 
G01 X-54.1727 Y19.3278 
G01 X-52.5073 Y19.3278 
G01 X-52.4706 Y19.3126 
G01 X-52.4424 Y19.2844 
G01 X-52.4272 Y19.2477 
G01 X-52.4272 Y18.7182 
G01 X-49.1728 Y18.7182 
G01 X-49.1728 Y19.2477 
G01 X-49.1576 Y19.2844 
G01 X-49.1294 Y19.3126 
G01 X-49.0927 Y19.3278 
G01 X-47.4273 Y19.3278 
G01 X-47.3906 Y19.3126 
G00 Z0.5000  
G00 X-47.3906 Y7.8826  
G01 Z-0.1500 F250   
G01 X-47.3624 Y7.8544  F400   
G01 X-47.3472 Y7.8177  
G01 X-47.3472 Y6.1523  
G01 X-47.3624 Y6.1156  
G01 X-47.3906 Y6.0874  
G01 X-47.4273 Y6.0722  
G01 X-49.0927 Y6.0722  
G01 X-49.1294 Y6.0874  
G01 X-49.1576 Y6.1156  
G01 X-49.1728 Y6.1523  
G01 X-49.1728 Y6.6818  
G01 X-52.4272 Y6.6818  
G01 X-52.4272 Y6.1523  
G01 X-52.4424 Y6.1156  
G01 X-52.4706 Y6.0874  
G01 X-52.5073 Y6.0722  
G01 X-54.1727 Y6.0722  
G01 X-54.2094 Y6.0874  
G01 X-54.2376 Y6.1156  
G01 X-54.2528 Y6.1523  
G01 X-54.2528 Y7.8177  
G01 X-54.2376 Y7.8544  
G01 X-54.2094 Y7.8826  
G01 X-54.1727 Y7.8978  
G01 X-52.5073 Y7.8978  
G01 X-52.4706 Y7.8826  
G01 X-52.4424 Y7.8544  
G01 X-52.4272 Y7.8177  
G01 X-52.4272 Y7.2882  
G01 X-49.1728 Y7.2882  
G01 X-49.1728 Y7.8177  
G01 X-49.1576 Y7.8544  
G01 X-49.1294 Y7.8826  
G01 X-49.0927 Y7.8978  
G01 X-47.4273 Y7.8978  
G01 X-47.3906 Y7.8826  
G00 Z0.5000  
G00 X-42.8076 Y7.8544  
G01 Z-0.1500 F250   
G01 X-42.7794 Y7.8826  F400   
G01 X-42.7427 Y7.8978  
G01 X-41.0773 Y7.8978  
G01 X-41.0406 Y7.8826  
G01 X-41.0124 Y7.8544  
G01 X-40.9972 Y7.8177  
G01 X-40.9972 Y7.2882  
G01 X-37.7428 Y7.2882  
G01 X-37.7428 Y7.8177  
G01 X-37.7276 Y7.8544  
G01 X-37.6994 Y7.8826  
G01 X-37.6627 Y7.8978  
G01 X-35.9973 Y7.8978  
G01 X-35.9606 Y7.8826  
G01 X-35.9324 Y7.8544  
G01 X-35.9172 Y7.8177  
G01 X-35.9172 Y6.1523  
G01 X-35.9324 Y6.1156  
G01 X-35.9606 Y6.0874  
G01 X-35.9973 Y6.0722  
G01 X-37.6627 Y6.0722  
G01 X-37.6994 Y6.0874  
G01 X-37.7276 Y6.1156  
G01 X-37.7428 Y6.1523  
G01 X-37.7428 Y6.6818  
G01 X-40.9972 Y6.6818  
G01 X-40.9972 Y6.1523  
G01 X-41.0124 Y6.1156  
G01 X-41.0406 Y6.0874  
G01 X-41.0773 Y6.0722  
G01 X-42.7427 Y6.0722  
G01 X-42.7794 Y6.0874  
G01 X-42.8076 Y6.1156  
G01 X-42.8228 Y6.1523  
G01 X-42.8228 Y7.8177  
G01 X-42.8076 Y7.8544  
G00 Z0.5000  
G00 X-58.7924 Y7.8544  
G01 Z-0.1500 F250   
G01 X-58.7772 Y7.8177  F400   
G01 X-58.7772 Y6.1523  
G01 X-58.7924 Y6.1156  
G01 X-58.8206 Y6.0874  
G01 X-58.8573 Y6.0722  
G01 X-60.5227 Y6.0722  
G01 X-60.5594 Y6.0874  
G01 X-60.5876 Y6.1156  
G01 X-60.6028 Y6.1523  
G01 X-60.6028 Y6.6818  
G01 X-63.8572 Y6.6818  
G01 X-63.8572 Y6.1523  
G01 X-63.8724 Y6.1156  
G01 X-63.9006 Y6.0874  
G01 X-63.9373 Y6.0722  
G01 X-65.6027 Y6.0722  
G01 X-65.6394 Y6.0874  
G01 X-65.6676 Y6.1156  
G01 X-65.6828 Y6.1523  
G01 X-65.6828 Y7.8177  
G01 X-65.6676 Y7.8544  
G01 X-65.6394 Y7.8826  
G01 X-65.6027 Y7.8978  
G01 X-63.9373 Y7.8978  
G01 X-63.9006 Y7.8826  
G01 X-63.8724 Y7.8544  
G01 X-63.8572 Y7.8177  
G01 X-63.8572 Y7.2882  
G01 X-60.6028 Y7.2882  
G01 X-60.6028 Y7.8177  
G01 X-60.5876 Y7.8544  
G01 X-60.5594 Y7.8826  
G01 X-60.5227 Y7.8978  
G01 X-58.8573 Y7.8978  
G01 X-58.8206 Y7.8826  
G01 X-58.7924 Y7.8544  
G00 Z0.5000  
G00 X-58.7924 Y28.9756 
G01 Z-0.1500 F250   
G01 X-58.8206 Y28.9474 F400   
G01 X-58.8573 Y28.9322 
G01 X-60.5227 Y28.9322 
G01 X-60.5594 Y28.9474 
G01 X-60.5876 Y28.9756 
G01 X-60.6028 Y29.0123 
G01 X-60.6028 Y29.5418 
G01 X-63.8572 Y29.5418 
G01 X-63.8572 Y29.0123 
G01 X-63.8724 Y28.9756 
G01 X-63.9006 Y28.9474 
G01 X-63.9373 Y28.9322 
G01 X-65.6027 Y28.9322 
G01 X-65.6394 Y28.9474 
G01 X-65.6676 Y28.9756 
G01 X-65.6828 Y29.0123 
G01 X-65.6828 Y30.6777 
G01 X-65.6676 Y30.7144 
G01 X-65.6394 Y30.7426 
G01 X-65.6027 Y30.7578 
G01 X-63.9373 Y30.7578 
G01 X-63.9006 Y30.7426 
G01 X-63.8724 Y30.7144 
G01 X-63.8572 Y30.6777 
G01 X-63.8572 Y30.1482 
G01 X-60.6028 Y30.1482 
G01 X-60.6028 Y30.6777 
G01 X-60.5876 Y30.7144 
G01 X-60.5594 Y30.7426 
G01 X-60.5227 Y30.7578 
G01 X-58.8573 Y30.7578 
G01 X-58.8206 Y30.7426 
G01 X-58.7924 Y30.7144 
G01 X-58.7772 Y30.6777 
G01 X-58.7772 Y29.0123 
G01 X-58.7924 Y28.9756 
G00 Z0.5000  
G00 X-10.1617 Y1.5570  
G01 Z-0.1500 F250   
G01 X-10.2320 Y1.4867  F400   
G01 X-10.3239 Y1.4486  
G01 X-12.5361 Y1.4486  
G01 X-12.6280 Y1.4867  
G01 X-12.6983 Y1.5570  
G01 X-12.7364 Y1.6489  
G01 X-12.7364 Y2.1653  
G01 X-19.6228 Y2.0875  
G01 X-19.6824 Y2.0868  
G01 X-19.7395 Y2.0862  
G01 X-24.7944 Y2.0868  
G01 X-24.7944 Y1.8553  
G01 X-24.8325 Y1.7634  
G01 X-24.9028 Y1.6931  
G01 X-24.9947 Y1.6550  
G01 X-26.9229 Y1.6550  
G01 X-27.0148 Y1.6931  
G01 X-27.0851 Y1.7634  
G01 X-27.1232 Y1.8553  
G01 X-27.1232 Y2.1174  
G01 X-27.1734 Y2.1460  
G01 X-27.2229 Y2.1737  
G01 X-27.2677 Y2.2174  
G01 X-27.3084 Y2.2570  
G01 X-27.3404 Y2.3108  
G01 X-27.3694 Y2.3595  
G01 X-31.2968 Y2.3662  
G01 X-31.2968 Y1.8553  
G01 X-31.3349 Y1.7634  
G01 X-31.4052 Y1.6931  
G01 X-31.4971 Y1.6550  
G01 X-33.4253 Y1.6550  
G01 X-33.5172 Y1.6931  
G01 X-33.5875 Y1.7634  
G01 X-33.6256 Y1.8553  
G01 X-33.6256 Y2.9534  
G01 X-35.4753 Y3.9918  
G01 X-40.8472 Y3.9918  
G01 X-40.8472 Y3.5825  
G01 X-40.8853 Y3.4906  
G01 X-40.9556 Y3.4203  
G01 X-41.0475 Y3.3822  
G01 X-42.7725 Y3.3822  
G01 X-42.8644 Y3.4203  
G01 X-42.9347 Y3.4906  
G01 X-42.9728 Y3.5825  
G01 X-42.9728 Y3.9918  
G01 X-52.2772 Y3.9918  
G01 X-52.2772 Y3.5825  
G01 X-52.3153 Y3.4906  
G01 X-52.3856 Y3.4203  
G01 X-52.4775 Y3.3822  
G01 X-54.2025 Y3.3822  
G01 X-54.2944 Y3.4203  
G01 X-54.3647 Y3.4906  
G01 X-54.4028 Y3.5825  
G01 X-54.4028 Y3.9918  
G01 X-63.7072 Y3.9918  
G01 X-63.7072 Y3.5825  
G01 X-63.7453 Y3.4906  
G01 X-63.8156 Y3.4203  
G01 X-63.9075 Y3.3822  
G01 X-65.6325 Y3.3822  
G01 X-65.7244 Y3.4203  
G01 X-65.7947 Y3.4906  
G01 X-65.8328 Y3.5825  
G01 X-65.8328 Y3.9918  
G01 X-66.0997 Y3.9918  
G01 X-66.2149 Y4.0227  
G01 X-66.3183 Y4.0823  
G01 X-66.4026 Y4.1667  
G01 X-66.4623 Y4.2701  
G01 X-66.4932 Y4.3853  
G01 X-66.4932 Y8.9497  
G01 X-66.4623 Y9.0649  
G01 X-66.4026 Y9.1683  
G01 X-66.3183 Y9.2526  
G01 X-66.2149 Y9.3123  
G01 X-66.0997 Y9.3432  
G01 X-63.3182 Y9.3432  
G01 X-63.3182 Y24.9468 
G01 X-64.8297 Y24.9468 
G01 X-64.9449 Y24.9777 
G01 X-65.0483 Y25.0373 
G01 X-65.1326 Y25.1217 
G01 X-65.1923 Y25.2251 
G01 X-65.2232 Y25.3403 
G01 X-65.2232 Y26.2422 
G01 X-65.6325 Y26.2422 
G01 X-65.7244 Y26.2803 
G01 X-65.7947 Y26.3506 
G01 X-65.8328 Y26.4425 
G01 X-65.8328 Y28.1675 
G01 X-65.7947 Y28.2594 
G01 X-65.7244 Y28.3297 
G01 X-65.6325 Y28.3678 
G01 X-63.9075 Y28.3678 
G01 X-63.8156 Y28.3297 
G01 X-63.7453 Y28.2594 
G01 X-63.7072 Y28.1675 
G01 X-63.7072 Y26.4425 
G01 X-63.7453 Y26.3506 
G01 X-63.8156 Y26.2803 
G01 X-63.9075 Y26.2422 
G01 X-64.3168 Y26.2422 
G01 X-64.3168 Y25.8532 
G01 X-53.7932 Y25.8532 
G01 X-53.7932 Y26.2422 
G01 X-54.2025 Y26.2422 
G01 X-54.2944 Y26.2803 
G01 X-54.3647 Y26.3506 
G01 X-54.4028 Y26.4425 
G01 X-54.4028 Y28.1675 
G01 X-54.3647 Y28.2594 
G01 X-54.2944 Y28.3297 
G01 X-54.2025 Y28.3678 
G01 X-52.4775 Y28.3678 
G01 X-52.3856 Y28.3297 
G01 X-52.3153 Y28.2594 
G01 X-52.2772 Y28.1675 
G01 X-52.2772 Y26.4425 
G01 X-52.3153 Y26.3506 
G01 X-52.3856 Y26.2803 
G01 X-52.4775 Y26.2422 
G01 X-52.8868 Y26.2422 
G01 X-52.8868 Y25.8532 
G01 X-42.3632 Y25.8532 
G01 X-42.3632 Y26.2422 
G01 X-42.7725 Y26.2422 
G01 X-42.8644 Y26.2803 
G01 X-42.9347 Y26.3506 
G01 X-42.9728 Y26.4425 
G01 X-42.9728 Y28.1675 
G01 X-42.9347 Y28.2594 
G01 X-42.8644 Y28.3297 
G01 X-42.7725 Y28.3678 
G01 X-41.0475 Y28.3678 
G01 X-40.9556 Y28.3297 
G01 X-40.8853 Y28.2594 
G01 X-40.8472 Y28.1675 
G01 X-40.8472 Y26.4425 
G01 X-40.8853 Y26.3506 
G01 X-40.9556 Y26.2803 
G01 X-41.0475 Y26.2422 
G01 X-41.4568 Y26.2422 
G01 X-41.4568 Y25.3403 
G01 X-41.4877 Y25.2251 
G01 X-36.8390 Y25.2182 
G01 X-36.7885 Y25.2202 
G01 X-36.7703 Y25.2182 
G01 X-36.7214 Y25.2051 
G01 X-36.6721 Y25.1940 
G01 X-36.6551 Y25.1873 
G01 X-36.6113 Y25.1620 
G01 X-36.5664 Y25.1385 
G01 X-36.5517 Y25.1276 
G01 X-36.5160 Y25.0919 
G01 X-36.4788 Y25.0575 
G01 X-36.4674 Y25.0433 
G01 X-36.4421 Y24.9995 
G01 X-36.4150 Y24.9567 
G01 X-36.4077 Y24.9399 
G01 X-36.3946 Y24.8910 
G01 X-36.3795 Y24.8427 
G01 X-36.3768 Y24.8247 
G01 X-36.3768 Y24.7741 
G01 X-36.3173 Y23.2878 
G01 X-35.9675 Y23.2878 
G01 X-35.8756 Y23.2497 
G01 X-35.8053 Y23.1794 
G01 X-35.7672 Y23.0875 
G01 X-35.7672 Y21.3625 
G01 X-35.8053 Y21.2706 
G01 X-35.8756 Y21.2003 
G01 X-35.9675 Y21.1622 
G01 X-36.3768 Y21.1622 
G01 X-36.3768 Y20.1382 
G01 X-33.4478 Y20.1382 
G01 X-33.4478 Y20.5475 
G01 X-33.4097 Y20.6394 
G01 X-33.3394 Y20.7097 
G01 X-33.2475 Y20.7478 
G01 X-31.5225 Y20.7478 
G01 X-31.4306 Y20.7097 
G01 X-31.3603 Y20.6394 
G01 X-31.3222 Y20.5475 
G01 X-31.3222 Y18.8225 
G01 X-31.3603 Y18.7306 
G01 X-31.4306 Y18.6603 
G01 X-31.5225 Y18.6222 
G01 X-33.2475 Y18.6222 
G01 X-33.3394 Y18.6603 
G01 X-33.4097 Y18.7306 
G01 X-33.4478 Y18.8225 
G01 X-33.4478 Y19.2318 
G01 X-33.8717 Y19.2318 
G01 X-33.8368 Y19.1097 
G01 X-33.8368 Y17.5982 
G01 X-33.4478 Y17.5982 
G01 X-33.4478 Y18.0075 
G01 X-33.4097 Y18.0994 
G01 X-33.3394 Y18.1697 
G01 X-33.2475 Y18.2078 
G01 X-31.5225 Y18.2078 
G01 X-31.4306 Y18.1697 
G01 X-31.3603 Y18.0994 
G01 X-31.3222 Y18.0075 
G01 X-31.3222 Y16.2825 
G01 X-31.3603 Y16.1906 
G01 X-31.4306 Y16.1203 
G01 X-31.5225 Y16.0822 
G01 X-33.2475 Y16.0822 
G01 X-33.3394 Y16.1203 
G01 X-33.4097 Y16.1906 
G01 X-33.4478 Y16.2825 
G01 X-33.4478 Y16.6918 
G01 X-34.3497 Y16.6918 
G01 X-34.4649 Y16.7227 
G01 X-34.4718 Y15.0582 
G01 X-33.4478 Y15.0582 
G01 X-33.4478 Y15.4675 
G01 X-33.4097 Y15.5594 
G01 X-33.3394 Y15.6297 
G01 X-33.2475 Y15.6678 
G01 X-31.5225 Y15.6678 
G01 X-31.4306 Y15.6297 
G01 X-31.3603 Y15.5594 
G01 X-31.3222 Y15.4675 
G01 X-31.3222 Y13.7425 
G01 X-31.3603 Y13.6506 
G01 X-31.4306 Y13.5803 
G01 X-31.5225 Y13.5422 
G01 X-33.2475 Y13.5422 
G01 X-33.3394 Y13.5803 
G01 X-33.4097 Y13.6506 
G01 X-33.4478 Y13.7425 
G01 X-33.4478 Y14.1518 
G01 X-34.9847 Y14.1518 
G01 X-35.0999 Y14.1827 
G01 X-35.2033 Y14.2424 
G01 X-35.2876 Y14.3267 
G01 X-35.3473 Y14.4301 
G01 X-35.3782 Y14.5453 
G01 X-35.3782 Y17.9618 
G01 X-39.5772 Y17.9618 
G01 X-39.5772 Y17.5525 
G01 X-39.6153 Y17.4606 
G01 X-39.6856 Y17.3903 
G01 X-39.7775 Y17.3522 
G01 X-41.5025 Y17.3522 
G01 X-41.5944 Y17.3903 
G01 X-41.6647 Y17.4606 
G01 X-41.7028 Y17.5525 
G01 X-41.7028 Y19.2775 
G01 X-41.6647 Y19.3694 
G01 X-41.5944 Y19.4397 
G01 X-41.5025 Y19.4778 
G01 X-39.7775 Y19.4778 
G01 X-39.6856 Y19.4397 
G01 X-39.6153 Y19.3694 
G01 X-39.5772 Y19.2775 
G01 X-39.5772 Y18.8682 
G01 X-37.8833 Y18.8682 
G01 X-37.9182 Y18.9903 
G01 X-37.9182 Y19.8668 
G01 X-45.9018 Y19.8668 
G01 X-45.9018 Y14.5453 
G01 X-45.9327 Y14.4301 
G01 X-45.9924 Y14.3267 
G01 X-46.0767 Y14.2424 
G01 X-46.1801 Y14.1827 
G01 X-46.2953 Y14.1518 
G01 X-47.1972 Y14.1518 
G01 X-47.1972 Y13.7425 
G01 X-47.2353 Y13.6506 
G01 X-47.3056 Y13.5803 
G01 X-47.3975 Y13.5422 
G01 X-49.1225 Y13.5422 
G01 X-49.2144 Y13.5803 
G01 X-49.2847 Y13.6506 
G01 X-49.3228 Y13.7425 
G01 X-49.3228 Y15.4675 
G01 X-49.2847 Y15.5594 
G01 X-49.2144 Y15.6297 
G01 X-49.1225 Y15.6678 
G01 X-47.3975 Y15.6678 
G01 X-47.3056 Y15.6297 
G01 X-47.2353 Y15.5594 
G01 X-47.1972 Y15.4675 
G01 X-47.1972 Y15.0582 
G01 X-46.8082 Y15.0582 
G01 X-46.8082 Y19.8668 
G01 X-48.3197 Y19.8668 
G01 X-48.4349 Y19.8977 
G01 X-48.5383 Y19.9574 
G01 X-48.6226 Y20.0417 
G01 X-48.6823 Y20.1451 
G01 X-48.7132 Y20.2603 
G01 X-48.7132 Y21.1622 
G01 X-49.1225 Y21.1622 
G01 X-49.2144 Y21.2003 
G01 X-49.2847 Y21.2706 
G01 X-49.3228 Y21.3625 
G01 X-49.3228 Y23.0875 
G01 X-49.2847 Y23.1794 
G01 X-49.2144 Y23.2497 
G01 X-49.1225 Y23.2878 
G01 X-47.3975 Y23.2878 
G01 X-47.3056 Y23.2497 
G01 X-47.2353 Y23.1794 
G01 X-47.1972 Y23.0875 
G01 X-47.1972 Y21.3625 
G01 X-47.2353 Y21.2706 
G01 X-47.3056 Y21.2003 
G01 X-47.3975 Y21.1622 
G01 X-47.8068 Y21.1622 
G01 X-47.8068 Y20.7732 
G01 X-37.4053 Y20.7732 
G01 X-37.2901 Y20.7423 
G01 X-37.2832 Y21.1622 
G01 X-37.6925 Y21.1622 
G01 X-37.7844 Y21.2003 
G01 X-37.8547 Y21.2706 
G01 X-37.8928 Y21.3625 
G01 X-37.8928 Y23.0875 
G01 X-37.8547 Y23.1794 
G01 X-37.7844 Y23.2497 
G01 X-37.6925 Y23.2878 
G01 X-37.2245 Y23.2878 
G01 X-37.2654 Y24.3118 
G01 X-56.0618 Y24.3118 
G01 X-56.0618 Y19.6253 
G01 X-56.0927 Y19.5101 
G01 X-56.1523 Y19.4067 
G01 X-56.2367 Y19.3224 
G01 X-56.3401 Y19.2627 
G01 X-56.4553 Y19.2318 
G01 X-60.5068 Y19.2318 
G01 X-60.5068 Y15.6678 
G01 X-58.8275 Y15.6678 
G01 X-58.7356 Y15.6297 
G01 X-58.6653 Y15.5594 
G01 X-58.6272 Y15.4675 
G01 X-58.6272 Y13.7425 
G01 X-58.6653 Y13.6506 
G01 X-58.7356 Y13.5803 
G01 X-58.8275 Y13.5422 
G01 X-60.5525 Y13.5422 
G01 X-60.6444 Y13.5803 
G01 X-60.7147 Y13.6506 
G01 X-60.7528 Y13.7425 
G01 X-60.7528 Y14.1518 
G01 X-61.0197 Y14.1518 
G01 X-61.1349 Y14.1827 
G01 X-61.1418 Y13.1532 
G01 X-53.7932 Y13.1532 
G01 X-53.7932 Y14.8122 
G01 X-54.2025 Y14.8122 
G01 X-54.2944 Y14.8503 
G01 X-54.3647 Y14.9206 
G01 X-54.4028 Y15.0125 
G01 X-54.4028 Y16.7375 
G01 X-54.3647 Y16.8294 
G01 X-54.2944 Y16.8997 
G01 X-54.2025 Y16.9378 
G01 X-52.4775 Y16.9378 
G01 X-52.3856 Y16.8997 
G01 X-52.3153 Y16.8294 
G01 X-52.2772 Y16.7375 
G01 X-52.2772 Y15.0125 
G01 X-52.3153 Y14.9206 
G01 X-52.3856 Y14.8503 
G01 X-52.4775 Y14.8122 
G01 X-52.8868 Y14.8122 
G01 X-52.8868 Y12.6403 
G01 X-52.9177 Y12.5251 
G01 X-37.2832 Y12.5182 
G01 X-37.2832 Y13.5422 
G01 X-37.6925 Y13.5422 
G01 X-37.7844 Y13.5803 
G01 X-37.8547 Y13.6506 
G01 X-37.8928 Y13.7425 
G01 X-37.8928 Y15.4675 
G01 X-37.8547 Y15.5594 
G01 X-37.7844 Y15.6297 
G01 X-37.6925 Y15.6678 
G01 X-35.9675 Y15.6678 
G01 X-35.8756 Y15.6297 
G01 X-35.8053 Y15.5594 
G01 X-35.7672 Y15.4675 
G01 X-35.7672 Y13.7425 
G01 X-35.8053 Y13.6506 
G01 X-35.8756 Y13.5803 
G01 X-35.9675 Y13.5422 
G01 X-36.3768 Y13.5422 
G01 X-36.3768 Y12.5182 
G01 X-29.6632 Y12.5182 
G01 X-29.6632 Y19.7447 
G01 X-29.6323 Y19.8599 
G01 X-29.5726 Y19.9633 
G01 X-29.4883 Y20.0476 
G01 X-29.3849 Y20.1073 
G01 X-29.2697 Y20.1382 
G01 X-25.8278 Y20.1382 
G01 X-25.8278 Y20.5475 
G01 X-25.7897 Y20.6394 
G01 X-25.7194 Y20.7097 
G01 X-25.6275 Y20.7478 
G01 X-23.9025 Y20.7478 
G01 X-23.8106 Y20.7097 
G01 X-23.7403 Y20.6394 
G01 X-23.7022 Y20.5475 
G01 X-23.7022 Y18.8225 
G01 X-23.7403 Y18.7306 
G01 X-23.8106 Y18.6603 
G01 X-23.9025 Y18.6222 
G01 X-25.6275 Y18.6222 
G01 X-25.7194 Y18.6603 
G01 X-25.7897 Y18.7306 
G01 X-25.8278 Y18.8225 
G01 X-25.8278 Y19.2318 
G01 X-28.7568 Y19.2318 
G01 X-28.7568 Y17.5467 
G01 X-28.7196 Y17.5568 
G01 X-28.6631 Y17.5724 
G01 X-28.6025 Y17.5728 
G01 X-25.8278 Y17.5912 
G01 X-25.8278 Y18.0075 
G01 X-25.7897 Y18.0994 
G01 X-25.7194 Y18.1697 
G01 X-25.6275 Y18.2078 
G01 X-23.9025 Y18.2078 
G01 X-23.8106 Y18.1697 
G01 X-23.7403 Y18.0994 
G01 X-23.7022 Y18.0075 
G01 X-23.7022 Y16.2825 
G01 X-23.7403 Y16.1906 
G01 X-23.8106 Y16.1203 
G01 X-23.9025 Y16.0822 
G01 X-25.6275 Y16.0822 
G01 X-25.7194 Y16.1203 
G01 X-25.7897 Y16.1906 
G01 X-25.8278 Y16.2825 
G01 X-25.8278 Y16.6848 
G01 X-28.1458 Y16.6694 
G01 X-28.1220 Y8.9634  
G01 X-27.0632 Y8.4186  
G01 X-27.0148 Y8.4669  
G01 X-26.9229 Y8.5050  
G01 X-24.9947 Y8.5050  
G01 X-24.9028 Y8.4669  
G01 X-24.8325 Y8.3966  
G01 X-24.7944 Y8.3047  
G01 X-24.7944 Y6.3765  
G01 X-24.8325 Y6.2846  
G01 X-24.9028 Y6.2143  
G01 X-24.9947 Y6.1762  
G01 X-26.9229 Y6.1762  
G01 X-27.0148 Y6.2143  
G01 X-27.0851 Y6.2846  
G01 X-27.1232 Y6.3765  
G01 X-27.1232 Y7.4301  
G01 X-28.7392 Y8.2616  
G01 X-28.7499 Y8.2645  
G01 X-28.7921 Y8.2888  
G01 X-28.8354 Y8.3111  
G01 X-28.8533 Y8.3241  
G01 X-28.8877 Y8.3586  
G01 X-28.9238 Y8.3913  
G01 X-28.9376 Y8.4085  
G01 X-28.9540 Y8.4368  
G01 X-31.3751 Y8.4368  
G01 X-31.3349 Y8.3966  
G01 X-31.2968 Y8.3047  
G01 X-31.2968 Y6.3765  
G01 X-31.3349 Y6.2846  
G01 X-31.4052 Y6.2143  
G01 X-31.4971 Y6.1762  
G01 X-33.4253 Y6.1762  
G01 X-33.5172 Y6.2143  
G01 X-33.5875 Y6.2846  
G01 X-33.6256 Y6.3765  
G01 X-33.6256 Y8.3047  
G01 X-33.5875 Y8.3966  
G01 X-33.5172 Y8.4669  
G01 X-33.4253 Y8.5050  
G01 X-32.7117 Y8.5050  
G01 X-32.6350 Y8.9305  
G01 X-32.6350 Y8.9497  
G01 X-32.6244 Y8.9890  
G01 X-32.6172 Y9.0291  
G01 X-32.6091 Y9.0465  
G01 X-32.6041 Y9.0649  
G01 X-32.5837 Y9.1002  
G01 X-32.5664 Y9.1371  
G01 X-32.5540 Y9.1517  
G01 X-32.5444 Y9.1683  
G01 X-32.5156 Y9.1971  
G01 X-32.4893 Y9.2282  
G01 X-32.4736 Y9.2391  
G01 X-32.4601 Y9.2526  
G01 X-32.4248 Y9.2730  
G01 X-32.3913 Y9.2963  
G01 X-32.3733 Y9.3027  
G01 X-32.3567 Y9.3123  
G01 X-32.3174 Y9.3229  
G01 X-32.2790 Y9.3367  
G01 X-32.2599 Y9.3382  
G01 X-32.2415 Y9.3432  
G01 X-32.2007 Y9.3432  
G01 X-32.1601 Y9.3466  
G01 X-32.1413 Y9.3432  
G01 X-29.0296 Y9.3432  
G01 X-29.0367 Y11.6423 
G01 X-29.1503 Y11.6118 
G01 X-62.2897 Y11.6118 
G01 X-62.4049 Y11.6427 
G01 X-62.4118 Y8.8303  
G01 X-62.4427 Y8.7151  
G01 X-62.5023 Y8.6117  
G01 X-62.5867 Y8.5274  
G01 X-62.6901 Y8.4677  
G01 X-62.8053 Y8.4368  
G01 X-65.5868 Y8.4368  
G01 X-65.5868 Y8.0478  
G01 X-63.9075 Y8.0478  
G01 X-63.8156 Y8.0097  
G01 X-63.7453 Y7.9394  
G01 X-63.7072 Y7.8475  
G01 X-63.7072 Y7.4382  
G01 X-60.7528 Y7.4382  
G01 X-60.7528 Y7.8475  
G01 X-60.7147 Y7.9394  
G01 X-60.6444 Y8.0097  
G01 X-60.5525 Y8.0478  
G01 X-58.8275 Y8.0478  
G01 X-58.7356 Y8.0097  
G01 X-58.6653 Y7.9394  
G01 X-58.6272 Y7.8475  
G01 X-58.6272 Y6.1225  
G01 X-58.6653 Y6.0306  
G01 X-58.7356 Y5.9603  
G01 X-58.8275 Y5.9222  
G01 X-60.5525 Y5.9222  
G01 X-60.6444 Y5.9603  
G01 X-60.7147 Y6.0306  
G01 X-60.7528 Y6.1225  
G01 X-60.7528 Y6.5318  
G01 X-63.7072 Y6.5318  
G01 X-63.7072 Y6.1225  
G01 X-63.7453 Y6.0306  
G01 X-63.8156 Y5.9603  
G01 X-63.9075 Y5.9222  
G01 X-65.5868 Y5.9222  
G01 X-65.5868 Y5.5078  
G01 X-63.9075 Y5.5078  
G01 X-63.8156 Y5.4697  
G01 X-63.7453 Y5.3994  
G01 X-63.7072 Y5.3075  
G01 X-63.7072 Y4.8982  
G01 X-54.4028 Y4.8982  
G01 X-54.4028 Y5.3075  
G01 X-54.3647 Y5.3994  
G01 X-54.2944 Y5.4697  
G01 X-54.2025 Y5.5078  
G01 X-52.4775 Y5.5078  
G01 X-52.3856 Y5.4697  
G01 X-52.3153 Y5.3994  
G01 X-52.2772 Y5.3075  
G01 X-52.2772 Y4.8982  
G01 X-42.9728 Y4.8982  
G01 X-42.9728 Y5.3075  
G01 X-42.9347 Y5.3994  
G01 X-42.8644 Y5.4697  
G01 X-42.7725 Y5.5078  
G01 X-41.0475 Y5.5078  
G01 X-40.9556 Y5.4697  
G01 X-40.8853 Y5.3994  
G01 X-40.8472 Y5.3075  
G01 X-40.8472 Y4.8982  
G01 X-35.3595 Y4.8982  
G01 X-35.3026 Y4.8989  
G01 X-35.2420 Y4.8834  
G01 X-35.1870 Y4.8694  
G01 X-35.1325 Y4.8388  
G01 X-33.5260 Y3.9369  
G01 X-33.4253 Y3.9838  
G01 X-31.4971 Y3.9838  
G01 X-31.4052 Y3.9457  
G01 X-31.3349 Y3.8754  
G01 X-31.2968 Y3.7835  
G01 X-31.2968 Y3.2726  
G01 X-27.1232 Y3.2726  
G01 X-27.1232 Y3.7835  
G01 X-27.0851 Y3.8754  
G01 X-27.0148 Y3.9457  
G01 X-26.9229 Y3.9838  
G01 X-24.9947 Y3.9838  
G01 X-24.9028 Y3.9457  
G01 X-24.8325 Y3.8754  
G01 X-24.7944 Y3.7835  
G01 X-24.7944 Y2.9932  
G01 X-20.1382 Y2.9932  
G01 X-20.1382 Y14.1518 
G01 X-23.7022 Y14.1518 
G01 X-23.7022 Y13.7425 
G01 X-23.7403 Y13.6506 
G01 X-23.8106 Y13.5803 
G01 X-23.9025 Y13.5422 
G01 X-25.6275 Y13.5422 
G01 X-25.7194 Y13.5803 
G01 X-25.7897 Y13.6506 
G01 X-25.8278 Y13.7425 
G01 X-25.8278 Y15.4675 
G01 X-25.7897 Y15.5594 
G01 X-25.7194 Y15.6297 
G01 X-25.6275 Y15.6678 
G01 X-23.9025 Y15.6678 
G01 X-23.8106 Y15.6297 
G01 X-23.7403 Y15.5594 
G01 X-23.7022 Y15.4675 
G01 X-23.7022 Y15.0582 
G01 X-19.6253 Y15.0582 
G01 X-19.5101 Y15.0273 
G01 X-19.4067 Y14.9676 
G01 X-19.3224 Y14.8833 
G01 X-19.2627 Y14.7799 
G01 X-19.2318 Y14.6647 
G01 X-19.2318 Y2.9983  
G01 X-12.7364 Y3.0718  
G01 X-12.7364 Y3.8611  
G01 X-12.6983 Y3.9530  
G01 X-12.6280 Y4.0233  
G01 X-12.5361 Y4.0614  
G01 X-10.3239 Y4.0614  
G01 X-10.2320 Y4.0233  
G01 X-10.1617 Y3.9530  
G01 X-10.1236 Y3.8611  
G01 X-10.1236 Y1.6489  
G01 X-10.1617 Y1.5570  
G00 Z0.5000  
G00 X-10.1617 Y21.5570 
G01 Z-0.1500 F250   
G01 X-10.2320 Y21.4867 F400   
G01 X-10.3239 Y21.4486 
G01 X-12.5361 Y21.4486 
G01 X-12.6280 Y21.4867 
G01 X-12.6983 Y21.5570 
G01 X-12.7364 Y21.6489 
G01 X-12.7364 Y23.8611 
G01 X-12.6983 Y23.9530 
G01 X-12.6280 Y24.0233 
G01 X-12.5361 Y24.0614 
G01 X-11.8832 Y24.0614 
G01 X-11.8832 Y28.6386 
G01 X-12.4361 Y28.6386 
G01 X-12.5280 Y28.6767 
G01 X-12.5983 Y28.7470 
G01 X-12.6364 Y28.8389 
G01 X-12.6364 Y30.8511 
G01 X-12.5983 Y30.9430 
G01 X-12.5280 Y31.0133 
G01 X-12.4361 Y31.0514 
G01 X-10.4239 Y31.0514 
G01 X-10.3320 Y31.0133 
G01 X-10.2617 Y30.9430 
G01 X-10.2236 Y30.8511 
G01 X-10.2236 Y28.8389 
G01 X-10.2617 Y28.7470 
G01 X-10.3320 Y28.6767 
G01 X-10.4239 Y28.6386 
G01 X-10.9768 Y28.6386 
G01 X-10.9768 Y24.0614 
G01 X-10.3239 Y24.0614 
G01 X-10.2320 Y24.0233 
G01 X-10.1617 Y23.9530 
G01 X-10.1236 Y23.8611 
G01 X-10.1236 Y21.6489 
G01 X-10.1617 Y21.5570 
G00 Z0.5000  
G00 X-9.9880 Y28.6767 
G01 Z-0.1500 F250   
G01 X-10.0583 Y28.7470 F400   
G01 X-10.0964 Y28.8389 
G01 X-10.0964 Y30.8511 
G01 X-10.0583 Y30.9430 
G01 X-9.9880 Y31.0133 
G01 X-9.8961 Y31.0514 
G01 X-7.8839 Y31.0514 
G01 X-7.7920 Y31.0133 
G01 X-7.7217 Y30.9430 
G01 X-7.6836 Y30.8511 
G01 X-7.6836 Y28.8389 
G01 X-7.7217 Y28.7470 
G01 X-7.7920 Y28.6767 
G01 X-7.8839 Y28.6386 
G01 X-9.8961 Y28.6386 
G01 X-9.9880 Y28.6767 
G00 Z0.5000  
G00 X-12.8017 Y28.7470 
G01 Z-0.1500 F250   
G01 X-12.8720 Y28.6767 F400   
G01 X-12.9639 Y28.6386 
G01 X-14.5355 Y28.6386 
G01 X-14.9617 Y28.2124 
G01 X-15.0651 Y28.1527 
G01 X-15.1803 Y28.1218 
G01 X-31.9318 Y28.1218 
G01 X-31.9318 Y27.0978 
G01 X-31.5225 Y27.0978 
G01 X-31.4306 Y27.0597 
G01 X-31.3603 Y26.9894 
G01 X-31.3222 Y26.8975 
G01 X-31.3222 Y25.1725 
G01 X-31.3603 Y25.0806 
G01 X-31.4306 Y25.0103 
G01 X-31.5225 Y24.9722 
G01 X-31.9318 Y24.9722 
G01 X-31.9318 Y23.2878 
G01 X-31.5225 Y23.2878 
G01 X-31.4306 Y23.2497 
G01 X-31.3603 Y23.1794 
G01 X-31.3222 Y23.0875 
G01 X-31.3222 Y21.3625 
G01 X-31.3603 Y21.2706 
G01 X-31.4306 Y21.2003 
G01 X-31.5225 Y21.1622 
G01 X-33.2475 Y21.1622 
G01 X-33.3394 Y21.2003 
G01 X-33.4097 Y21.2706 
G01 X-33.4478 Y21.3625 
G01 X-33.4478 Y23.0875 
G01 X-33.4097 Y23.1794 
G01 X-33.3394 Y23.2497 
G01 X-33.2475 Y23.2878 
G01 X-32.8382 Y23.2878 
G01 X-32.8382 Y24.9722 
G01 X-33.2475 Y24.9722 
G01 X-33.3394 Y25.0103 
G01 X-33.4097 Y25.0806 
G01 X-33.4478 Y25.1725 
G01 X-33.4478 Y26.8975 
G01 X-33.4097 Y26.9894 
G01 X-33.3394 Y27.0597 
G01 X-33.2475 Y27.0978 
G01 X-32.8382 Y27.0978 
G01 X-32.8382 Y28.6347 
G01 X-32.8073 Y28.7499 
G01 X-32.7476 Y28.8533 
G01 X-32.6633 Y28.9376 
G01 X-32.5599 Y28.9973 
G01 X-32.4447 Y29.0282 
G01 X-15.4277 Y29.0282 
G01 X-15.1764 Y29.2795 
G01 X-15.1764 Y30.8511 
G01 X-15.1383 Y30.9430 
G01 X-15.0680 Y31.0133 
G01 X-14.9761 Y31.0514 
G01 X-12.9639 Y31.0514 
G01 X-12.8720 Y31.0133 
G01 X-12.8017 Y30.9430 
G01 X-12.7636 Y30.8511 
G01 X-12.7636 Y28.8389 
G01 X-12.8017 Y28.7470 
G00 Z0.5000  
G00 X-23.8106 Y27.0597 
G01 Z-0.1500 F250   
G01 X-23.7403 Y26.9894 F400   
G01 X-23.7022 Y26.8975 
G01 X-23.7022 Y25.1725 
G01 X-23.7403 Y25.0806 
G01 X-23.8106 Y25.0103 
G01 X-23.9025 Y24.9722 
G01 X-24.3118 Y24.9722 
G01 X-24.3118 Y23.2878 
G01 X-23.9025 Y23.2878 
G01 X-23.8106 Y23.2497 
G01 X-23.7403 Y23.1794 
G01 X-23.7022 Y23.0875 
G01 X-23.7022 Y21.3625 
G01 X-23.7403 Y21.2706 
G01 X-23.8106 Y21.2003 
G01 X-23.9025 Y21.1622 
G01 X-25.6275 Y21.1622 
G01 X-25.7194 Y21.2003 
G01 X-25.7897 Y21.2706 
G01 X-25.8278 Y21.3625 
G01 X-25.8278 Y23.0875 
G01 X-25.7897 Y23.1794 
G01 X-25.7194 Y23.2497 
G01 X-25.6275 Y23.2878 
G01 X-25.2182 Y23.2878 
G01 X-25.2182 Y24.9722 
G01 X-25.6275 Y24.9722 
G01 X-25.7194 Y25.0103 
G01 X-25.7897 Y25.0806 
G01 X-25.8278 Y25.1725 
G01 X-25.8278 Y26.8975 
G01 X-25.7897 Y26.9894 
G01 X-25.7194 Y27.0597 
G01 X-25.6275 Y27.0978 
G01 X-23.9025 Y27.0978 
G01 X-23.8106 Y27.0597 
G00 Z0.5000  
G00 X-35.8053 Y28.8906 
G01 Z-0.1500 F250   
G01 X-35.8756 Y28.8203 F400   
G01 X-35.9675 Y28.7822 
G01 X-37.6925 Y28.7822 
G01 X-37.7844 Y28.8203 
G01 X-37.8547 Y28.8906 
G01 X-37.8928 Y28.9825 
G01 X-37.8928 Y29.3918 
G01 X-40.8472 Y29.3918 
G01 X-40.8472 Y28.9825 
G01 X-40.8853 Y28.8906 
G01 X-40.9556 Y28.8203 
G01 X-41.0475 Y28.7822 
G01 X-42.7725 Y28.7822 
G01 X-42.8644 Y28.8203 
G01 X-42.9347 Y28.8906 
G01 X-42.9728 Y28.9825 
G01 X-42.9728 Y30.7075 
G01 X-42.9347 Y30.7994 
G01 X-42.8644 Y30.8697 
G01 X-42.7725 Y30.9078 
G01 X-41.0475 Y30.9078 
G01 X-40.9556 Y30.8697 
G01 X-40.8853 Y30.7994 
G01 X-40.8472 Y30.7075 
G01 X-40.8472 Y30.2982 
G01 X-37.8928 Y30.2982 
G01 X-37.8928 Y30.7075 
G01 X-37.8547 Y30.7994 
G01 X-37.7844 Y30.8697 
G01 X-37.6925 Y30.9078 
G01 X-35.9675 Y30.9078 
G01 X-35.8756 Y30.8697 
G01 X-35.8053 Y30.7994 
G01 X-35.7672 Y30.7075 
G01 X-35.7672 Y28.9825 
G01 X-35.8053 Y28.8906 
G00 Z0.5000  
G00 X-47.2353 Y28.8906 
G01 Z-0.1500 F250   
G01 X-47.3056 Y28.8203 F400   
G01 X-47.3975 Y28.7822 
G01 X-49.1225 Y28.7822 
G01 X-49.2144 Y28.8203 
G01 X-49.2847 Y28.8906 
G01 X-49.3228 Y28.9825 
G01 X-49.3228 Y29.3918 
G01 X-52.2772 Y29.3918 
G01 X-52.2772 Y28.9825 
G01 X-52.3153 Y28.8906 
G01 X-52.3856 Y28.8203 
G01 X-52.4775 Y28.7822 
G01 X-54.2025 Y28.7822 
G01 X-54.2944 Y28.8203 
G01 X-54.3647 Y28.8906 
G01 X-54.4028 Y28.9825 
G01 X-54.4028 Y30.7075 
G01 X-54.3647 Y30.7994 
G01 X-54.2944 Y30.8697 
G01 X-54.2025 Y30.9078 
G01 X-52.4775 Y30.9078 
G01 X-52.3856 Y30.8697 
G01 X-52.3153 Y30.7994 
G01 X-52.2772 Y30.7075 
G01 X-52.2772 Y30.2982 
G01 X-49.3228 Y30.2982 
G01 X-49.3228 Y30.7075 
G01 X-49.2847 Y30.7994 
G01 X-49.2144 Y30.8697 
G01 X-49.1225 Y30.9078 
G01 X-47.3975 Y30.9078 
G01 X-47.3056 Y30.8697 
G01 X-47.2353 Y30.7994 
G01 X-47.1972 Y30.7075 
G01 X-47.1972 Y28.9825 
G01 X-47.2353 Y28.8906 
G00 Z0.5000  
G00 X-47.3056 Y19.4397 
G01 Z-0.1500 F250   
G01 X-47.2353 Y19.3694 F400   
G01 X-47.1972 Y19.2775 
G01 X-47.1972 Y17.5525 
G01 X-47.2353 Y17.4606 
G01 X-47.3056 Y17.3903 
G01 X-47.3975 Y17.3522 
G01 X-49.1225 Y17.3522 
G01 X-49.2144 Y17.3903 
G01 X-49.2847 Y17.4606 
G01 X-49.3228 Y17.5525 
G01 X-49.3228 Y17.9618 
G01 X-52.2772 Y17.9618 
G01 X-52.2772 Y17.5525 
G01 X-52.3153 Y17.4606 
G01 X-52.3856 Y17.3903 
G01 X-52.4775 Y17.3522 
G01 X-54.2025 Y17.3522 
G01 X-54.2944 Y17.3903 
G01 X-54.3647 Y17.4606 
G01 X-54.4028 Y17.5525 
G01 X-54.4028 Y19.2775 
G01 X-54.3647 Y19.3694 
G01 X-54.2944 Y19.4397 
G01 X-54.2025 Y19.4778 
G01 X-52.4775 Y19.4778 
G01 X-52.3856 Y19.4397 
G01 X-52.3153 Y19.3694 
G01 X-52.2772 Y19.2775 
G01 X-52.2772 Y18.8682 
G01 X-49.3228 Y18.8682 
G01 X-49.3228 Y19.2775 
G01 X-49.2847 Y19.3694 
G01 X-49.2144 Y19.4397 
G01 X-49.1225 Y19.4778 
G01 X-47.3975 Y19.4778 
G01 X-47.3056 Y19.4397 
G00 Z0.5000  
G00 X-47.3056 Y8.0097  
G01 Z-0.1500 F250   
G01 X-47.2353 Y7.9394  F400   
G01 X-47.1972 Y7.8475  
G01 X-47.1972 Y6.1225  
G01 X-47.2353 Y6.0306  
G01 X-47.3056 Y5.9603  
G01 X-47.3975 Y5.9222  
G01 X-49.1225 Y5.9222  
G01 X-49.2144 Y5.9603  
G01 X-49.2847 Y6.0306  
G01 X-49.3228 Y6.1225  
G01 X-49.3228 Y6.5318  
G01 X-52.2772 Y6.5318  
G01 X-52.2772 Y6.1225  
G01 X-52.3153 Y6.0306  
G01 X-52.3856 Y5.9603  
G01 X-52.4775 Y5.9222  
G01 X-54.2025 Y5.9222  
G01 X-54.2944 Y5.9603  
G01 X-54.3647 Y6.0306  
G01 X-54.4028 Y6.1225  
G01 X-54.4028 Y7.8475  
G01 X-54.3647 Y7.9394  
G01 X-54.2944 Y8.0097  
G01 X-54.2025 Y8.0478  
G01 X-52.4775 Y8.0478  
G01 X-52.3856 Y8.0097  
G01 X-52.3153 Y7.9394  
G01 X-52.2772 Y7.8475  
G01 X-52.2772 Y7.4382  
G01 X-49.3228 Y7.4382  
G01 X-49.3228 Y7.8475  
G01 X-49.2847 Y7.9394  
G01 X-49.2144 Y8.0097  
G01 X-49.1225 Y8.0478  
G01 X-47.3975 Y8.0478  
G01 X-47.3056 Y8.0097  
G00 Z0.5000  
G00 X-42.9347 Y7.9394  
G01 Z-0.1500 F250   
G01 X-42.8644 Y8.0097  F400   
G01 X-42.7725 Y8.0478  
G01 X-41.0475 Y8.0478  
G01 X-40.9556 Y8.0097  
G01 X-40.8853 Y7.9394  
G01 X-40.8472 Y7.8475  
G01 X-40.8472 Y7.4382  
G01 X-37.8928 Y7.4382  
G01 X-37.8928 Y7.8475  
G01 X-37.8547 Y7.9394  
G01 X-37.7844 Y8.0097  
G01 X-37.6925 Y8.0478  
G01 X-35.9675 Y8.0478  
G01 X-35.8756 Y8.0097  
G01 X-35.8053 Y7.9394  
G01 X-35.7672 Y7.8475  
G01 X-35.7672 Y6.1225  
G01 X-35.8053 Y6.0306  
G01 X-35.8756 Y5.9603  
G01 X-35.9675 Y5.9222  
G01 X-37.6925 Y5.9222  
G01 X-37.7844 Y5.9603  
G01 X-37.8547 Y6.0306  
G01 X-37.8928 Y6.1225  
G01 X-37.8928 Y6.5318  
G01 X-40.8472 Y6.5318  
G01 X-40.8472 Y6.1225  
G01 X-40.8853 Y6.0306  
G01 X-40.9556 Y5.9603  
G01 X-41.0475 Y5.9222  
G01 X-42.7725 Y5.9222  
G01 X-42.8644 Y5.9603  
G01 X-42.9347 Y6.0306  
G01 X-42.9728 Y6.1225  
G01 X-42.9728 Y7.8475  
G01 X-42.9347 Y7.9394  
G00 Z0.5000  
G00 X-57.6032 Y20.7732 
G01 Z-0.1500 F250   
G01 X-57.6032 Y24.9468 F400   
G01 X-62.4118 Y24.9468 
G01 X-62.4118 Y21.3733 
G01 X-62.2897 Y21.4082 
G01 X-60.7528 Y21.4082 
G01 X-60.7528 Y23.0875 
G01 X-60.7147 Y23.1794 
G01 X-60.6444 Y23.2497 
G01 X-60.5525 Y23.2878 
G01 X-58.8275 Y23.2878 
G01 X-58.7356 Y23.2497 
G01 X-58.6653 Y23.1794 
G01 X-58.6272 Y23.0875 
G01 X-58.6272 Y21.3625 
G01 X-58.6653 Y21.2706 
G01 X-58.7356 Y21.2003 
G01 X-58.8275 Y21.1622 
G01 X-59.2368 Y21.1622 
G01 X-59.2368 Y20.8953 
G01 X-59.2677 Y20.7801 
G01 X-57.6032 Y20.7732 
G00 Z0.5000  
G00 X-58.6653 Y28.8906 
G01 Z-0.1500 F250   
G01 X-58.7356 Y28.8203 F400   
G01 X-58.8275 Y28.7822 
G01 X-60.5525 Y28.7822 
G01 X-60.6444 Y28.8203 
G01 X-60.7147 Y28.8906 
G01 X-60.7528 Y28.9825 
G01 X-60.7528 Y29.3918 
G01 X-63.7072 Y29.3918 
G01 X-63.7072 Y28.9825 
G01 X-63.7453 Y28.8906 
G01 X-63.8156 Y28.8203 
G01 X-63.9075 Y28.7822 
G01 X-65.6325 Y28.7822 
G01 X-65.7244 Y28.8203 
G01 X-65.7947 Y28.8906 
G01 X-65.8328 Y28.9825 
G01 X-65.8328 Y30.7075 
G01 X-65.7947 Y30.7994 
G01 X-65.7244 Y30.8697 
G01 X-65.6325 Y30.9078 
G01 X-63.9075 Y30.9078 
G01 X-63.8156 Y30.8697 
G01 X-63.7453 Y30.7994 
G01 X-63.7072 Y30.7075 
G01 X-63.7072 Y30.2982 
G01 X-60.7528 Y30.2982 
G01 X-60.7528 Y30.7075 
G01 X-60.7147 Y30.7994 
G01 X-60.6444 Y30.8697 
G01 X-60.5525 Y30.9078 
G01 X-58.8275 Y30.9078 
G01 X-58.7356 Y30.8697 
G01 X-58.6653 Y30.7994 
G01 X-58.6272 Y30.7075 
G01 X-58.6272 Y28.9825 
G01 X-58.6653 Y28.8906 
G00 Z0.5000  
G82 X-11.4300 Y2.7550  Z-0.2794 F400   R0.5000  P0.000000
G82 X-11.4300 Y22.7550 
G82 X-24.7650 Y22.2250 
G82 X-24.7650 Y19.6850 
G82 X-24.7650 Y17.1450 
G82 X-24.7650 Y14.6050 
G82 X-32.3850 Y14.6050 
G82 X-32.3850 Y17.1450 
G82 X-32.3850 Y19.6850 
G82 X-32.3850 Y22.2250 
G82 X-41.9100 Y6.9850  
G82 X-41.9100 Y4.4450  
G82 X-64.7700 Y29.8450 
G82 X-64.7700 Y27.3050 
G82 X-41.9100 Y29.8450 
G82 X-41.9100 Y27.3050 
G82 X-64.7700 Y6.9850  
G82 X-64.7700 Y4.4450  
G82 X-53.3400 Y29.8450 
G82 X-53.3400 Y27.3050 
G82 X-53.3400 Y6.9850  
G82 X-53.3400 Y4.4450  
G82 X-53.3400 Y18.4150 
G82 X-53.3400 Y15.8750 
G82 X-36.8300 Y14.6050 
G82 X-36.8300 Y6.9850  
G82 X-59.6900 Y22.2250 
G82 X-59.6900 Y29.8450 
G82 X-36.8300 Y22.2250 
G82 X-36.8300 Y29.8450 
G82 X-59.6900 Y14.6050 
G82 X-59.6900 Y6.9850  
G82 X-48.2600 Y22.2250 
G82 X-48.2600 Y29.8450 
G82 X-48.2600 Y14.6050 
G82 X-48.2600 Y6.9850  
G82 X-40.6400 Y18.4150 
G82 X-48.2600 Y18.4150 
G82 X-32.3850 Y26.0350 
G82 X-24.7650 Y26.0350 
G82 X-25.9588 Y7.3406  
G82 X-32.4612 Y7.3406  
G82 X-25.9588 Y2.8194  
G82 X-32.4612 Y2.8194  
G82 X-13.9700 Y29.8450 
G82 X-11.4300 Y29.8450 
G82 X-8.8900 Y29.8450 
G00 Z12.7000 
M05
M02
